; generated by Slic3r 1.1.7 on 2015-03-02 at 15:24:33

; perimeters extrusion width = 0.50mm
; infill extrusion width = 1.02mm
; solid infill extrusion width = 0.85mm
; top infill extrusion width = 0.85mm

G21 ; set units to millimeters
M107
M190 S115 ; wait for bed temperature to be reached
M104 S220 ; set temperature
G28 ; home all axes
G1 Z5 F5000 ; lift nozzle

M109 S220 ; wait for temperature to be reached
G90 ; use absolute coordinates
G92 E0
M82 ; use absolute distances for extrusion
G1 F1800.000 E-1.00000
G92 E0
G1 Z0.500 F7800.000
G1 X54.912 Y85.890 F7800.000
G1 E1.00000 F1800.000
G1 X57.087 Y85.029 E1.43418 F897.168
G1 X58.500 Y84.882 E1.69773
G1 X141.500 Y84.882 E17.10008
G1 X143.806 Y85.279 E17.53426
G1 X145.846 Y86.425 E17.96844 F897.168
G1 X147.385 Y88.187 E18.40262
G1 X148.246 Y90.362 E18.83680
G1 X148.393 Y91.775 E19.10035
G1 X148.393 Y92.975 E19.32303
G1 X147.996 Y95.281 E19.75721
G1 X146.850 Y97.321 E20.19139
G1 X145.088 Y98.860 E20.62556
G1 X142.913 Y99.721 E21.05974
G1 X141.500 Y99.868 E21.32329
G1 X58.500 Y99.868 E36.72565
G1 X56.194 Y99.471 E37.15983
G1 X54.154 Y98.325 E37.59401
G1 X52.615 Y96.563 E38.02818
G1 X51.754 Y94.388 E38.46236
G1 X51.607 Y92.975 E38.72591
G1 X51.607 Y91.775 E38.94860
G1 X52.004 Y89.469 E39.38277
G1 X53.150 Y87.429 E39.81695
G1 X54.855 Y85.939 E40.23721
G1 F1800.000 E39.23721
G92 E0
G1 X141.500 Y92.375 F7800.000
G1 E1.00000 F1800.000
G1 X58.500 Y92.375 E16.40236 F600.000
M106 S255
M104 S215 ; set temperature
M140 S110 ; set bed temperature
G1 F1800.000 E15.40236
G92 E0
G1 Z0.700 F7800.000
G1 X141.250 Y92.725 F7800.000
G1 E1.00000 F1800.000
G1 X58.750 Y92.725 E4.42995 F600.000
G1 X58.750 Y92.025 E4.45905
G1 X141.250 Y92.025 E7.88901
G1 X141.250 Y92.650 E7.91499
G1 X140.817 Y92.475 F7800.000
G1 F1800.000 E6.91499
G92 E0
G1 Z0.900 F7800.000
G1 X141.250 Y92.725 F7800.000
G1 E1.00000 F1800.000
G1 X58.750 Y92.725 E4.42995 F600.000
G1 X58.750 Y92.025 E4.45905
G1 X141.250 Y92.025 E7.88901
G1 X141.250 Y92.650 E7.91499
G1 X140.817 Y92.475 F7800.000
G1 F1800.000 E6.91499
G92 E0
G1 Z1.100 F7800.000
G1 X141.250 Y92.725 F7800.000
G1 E1.00000 F1800.000
G1 X58.750 Y92.725 E4.42995 F600.000
G1 X58.750 Y92.025 E4.45905
G1 X141.250 Y92.025 E7.88901
G1 X141.250 Y92.650 E7.91499
G1 X140.817 Y92.475 F7800.000
G1 F1800.000 E6.91499
G92 E0
G1 Z1.300 F7800.000
G1 X141.250 Y92.725 F7800.000
G1 E1.00000 F1800.000
G1 X58.750 Y92.725 E4.42995 F600.000
G1 X58.750 Y92.025 E4.45905
G1 X141.250 Y92.025 E7.88901
G1 X141.250 Y92.650 E7.91499
G1 X140.817 Y92.475 F7800.000
G1 F1800.000 E6.91499
G92 E0
G1 Z1.500 F7800.000
G1 X141.250 Y92.725 F7800.000
G1 E1.00000 F1800.000
G1 X58.750 Y92.725 E4.42995 F600.000
G1 X58.750 Y92.025 E4.45905
G1 X141.250 Y92.025 E7.88901
G1 X141.250 Y92.650 E7.91499
G1 X140.817 Y92.475 F7800.000
G1 F1800.000 E6.91499
G92 E0
G1 Z1.700 F7800.000
G1 X141.250 Y92.725 F7800.000
G1 E1.00000 F1800.000
G1 X58.750 Y92.725 E4.42995 F600.000
G1 X58.750 Y92.025 E4.45905
G1 X141.250 Y92.025 E7.88901
G1 X141.250 Y92.650 E7.91499
G1 X140.817 Y92.475 F7800.000
G1 F1800.000 E6.91499
G92 E0
G1 Z1.900 F7800.000
G1 X141.250 Y92.725 F7800.000
G1 E1.00000 F1800.000
G1 X58.750 Y92.725 E4.42995 F600.000
G1 X58.750 Y92.025 E4.45905
G1 X141.250 Y92.025 E7.88901
G1 X141.250 Y92.650 E7.91499
G1 X140.817 Y92.475 F7800.000
G1 F1800.000 E6.91499
G92 E0
G1 Z2.100 F7800.000
G1 X141.250 Y92.725 F7800.000
G1 E1.00000 F1800.000
G1 X58.750 Y92.725 E4.42995 F600.000
G1 X58.750 Y92.025 E4.45905
G1 X141.250 Y92.025 E7.88901
G1 X141.250 Y92.650 E7.91499
G1 X140.817 Y92.475 F7800.000
G1 F1800.000 E6.91499
G92 E0
G1 Z2.300 F7800.000
G1 X141.250 Y92.725 F7800.000
G1 E1.00000 F1800.000
G1 X58.750 Y92.725 E4.42995 F600.000
G1 X58.750 Y92.025 E4.45905
G1 X141.250 Y92.025 E7.88901
G1 X141.250 Y92.650 E7.91499
G1 X140.817 Y92.475 F7800.000
G1 F1800.000 E6.91499
G92 E0
G1 Z2.500 F7800.000
G1 X141.250 Y92.725 F7800.000
G1 E1.00000 F1800.000
G1 X58.750 Y92.725 E4.42995 F600.000
G1 X58.750 Y92.025 E4.45905
G1 X141.250 Y92.025 E7.88901
G1 X141.250 Y92.650 E7.91499
G1 X140.817 Y92.475 F7800.000
G1 F1800.000 E6.91499
G92 E0
G1 Z2.700 F7800.000
G1 X141.251 Y92.725 F7800.000
G1 E1.00000 F1800.000
G1 X58.751 Y92.725 E4.42997 F600.000
G1 X58.751 Y92.025 E4.45907
G1 X141.251 Y92.025 E7.88904
G1 X141.251 Y92.650 E7.91502
G1 X140.818 Y92.475 F7800.000
G1 F1800.000 E6.91502
G92 E0
G1 Z2.900 F7800.000
G1 X141.262 Y92.725 F7800.000
G1 E1.00000 F1800.000
G1 X58.758 Y92.725 E4.43012 F600.000
G1 X58.758 Y92.025 E4.45922
G1 X141.262 Y92.025 E7.88934
G1 X141.262 Y92.650 E7.91532
G1 X140.829 Y92.475 F7800.000
G1 F1800.000 E6.91532
G92 E0
G1 Z3.100 F7800.000
G1 X141.273 Y92.725 F7800.000
G1 E1.00000 F1800.000
G1 X58.765 Y92.725 E4.43027 F600.000
G1 X58.765 Y92.025 E4.45937
G1 X141.273 Y92.025 E7.88964
G1 X141.273 Y92.650 E7.91563
G1 X140.840 Y92.475 F7800.000
G1 F1800.000 E6.91563
G92 E0
G1 Z3.300 F7800.000
G1 X141.306 Y92.725 F7800.000
G1 E1.00000 F1800.000
G1 X58.745 Y92.725 E4.43248 F600.000
G1 X58.745 Y92.025 E4.46158
G1 X141.306 Y92.025 E7.89406
G1 X141.306 Y92.650 E7.92005
G1 X140.873 Y92.475 F7800.000
G1 F1800.000 E6.92005
G92 E0
G1 Z3.500 F7800.000
G1 X141.349 Y92.725 F7800.000
G1 E1.00000 F1800.000
G1 X58.721 Y92.725 E4.43528 F600.000
G1 X58.721 Y92.025 E4.46438
G1 X141.349 Y92.025 E7.89965
G1 X141.349 Y92.650 E7.92564
G1 X140.916 Y92.475 F7800.000
G1 F1800.000 E6.92564
G92 E0
G1 Z3.700 F7800.000
G1 X141.403 Y92.725 F7800.000
G1 E1.00000 F1800.000
G1 X58.675 Y92.725 E4.43944 F600.000
G1 X58.675 Y92.025 E4.46854
G1 X141.403 Y92.025 E7.90797
G1 X141.403 Y92.650 E7.93396
G1 X140.970 Y92.475 F7800.000
G1 F1800.000 E6.93396
G92 E0
G1 Z3.900 F7800.000
G1 X141.480 Y92.725 F7800.000
G1 E1.00000 F1800.000
G1 X58.618 Y92.725 E4.44502 F600.000
G1 X58.618 Y92.025 E4.47412
G1 X141.480 Y92.025 E7.91914
G1 X141.480 Y92.650 E7.94512
G1 X141.047 Y92.475 F7800.000
G1 F1800.000 E6.94512
G92 E0
G1 Z4.100 F7800.000
G1 X141.560 Y92.725 F7800.000
G1 E1.00000 F1800.000
G1 X58.542 Y92.725 E4.45149 F600.000
G1 X58.542 Y92.025 E4.48059
G1 X141.560 Y92.025 E7.93208
G1 X141.560 Y92.650 E7.95807
G1 X141.127 Y92.475 F7800.000
G1 F1800.000 E6.95807
G92 E0
G1 Z4.300 F7800.000
G1 X141.676 Y92.725 F7800.000
G1 E1.00000 F1800.000
G1 X58.449 Y92.725 E4.46018 F600.000
G1 X58.449 Y92.025 E4.48928
G1 X141.676 Y92.025 E7.94946
G1 X141.676 Y92.650 E7.97544
G1 X141.243 Y92.475 F7800.000
G1 F1800.000 E6.97544
G92 E0
G1 Z4.500 F7800.000
G1 X141.792 Y92.725 F7800.000
G1 E1.00000 F1800.000
G1 X58.336 Y92.725 E4.46971 F600.000
G1 X58.336 Y92.025 E4.49881
G1 X141.792 Y92.025 E7.96852
G1 X141.792 Y92.650 E7.99450
G1 X141.359 Y92.475 F7800.000
G1 F1800.000 E6.99450
G92 E0
G1 Z4.700 F7800.000
G1 X141.954 Y92.725 F7800.000
G1 E1.00000 F1800.000
G1 X58.201 Y92.725 E4.48204 F600.000
G1 X58.201 Y92.025 E4.51115
G1 X141.954 Y92.025 E7.99319
G1 X141.954 Y92.650 E8.01917
G1 X141.521 Y92.475 F7800.000
G1 F1800.000 E7.01917
G92 E0
G1 Z4.900 F7800.000
G1 X142.124 Y92.725 F7800.000
G1 E1.00000 F1800.000
G1 X58.034 Y92.725 E4.49606 F600.000
G1 X58.034 Y92.025 E4.52516
G1 X142.124 Y92.025 E8.02122
G1 X142.124 Y92.650 E8.04720
G1 X141.691 Y92.475 F7800.000
G1 F1800.000 E7.04720
G92 E0
G1 Z5.100 F7800.000
G1 X142.347 Y92.725 F7800.000
G1 E1.00000 F1800.000
G1 X57.848 Y92.725 E4.51307 F600.000
G1 X57.848 Y92.025 E4.54217
G1 X142.347 Y92.025 E8.05524
G1 X142.347 Y92.650 E8.08123
G1 X141.914 Y92.475 F7800.000
G1 F1800.000 E7.08123
G92 E0
G1 Z5.300 F7800.000
G1 X142.614 Y92.725 F7800.000
G1 E1.00000 F1800.000
G1 X57.592 Y92.725 E4.53477 F600.000
G1 X57.592 Y92.025 E4.56388
G1 X142.614 Y92.025 E8.09865
G1 X142.614 Y92.650 E8.12463
G1 X142.181 Y92.475 F7800.000
G1 F1800.000 E7.12463
G92 E0
G1 Z5.500 F7800.000
G1 X142.951 Y92.725 F7800.000
G1 E1.00000 F1800.000
G1 X57.271 Y92.725 E4.56213 F600.000
G1 X57.271 Y92.025 E4.59123
G1 X142.951 Y92.025 E8.15336
G1 X142.951 Y92.650 E8.17935
G1 X142.518 Y92.475 F7800.000
G1 F1800.000 E7.17935
G92 E0
G1 Z5.700 F7800.000
G1 X56.809 Y92.725 F7800.000
G1 E1.00000 F1800.000
G1 X56.809 Y92.025 E1.02910 F600.000
G1 X143.451 Y92.025 E4.63122
M106 S255
G1 X143.468 Y92.025 E4.63261 F3600.000
G1 X143.468 Y92.725 E4.68976
G1 X143.451 Y92.725 E4.69114
M106 S255
G1 X56.884 Y92.725 E8.29015 F600.000
G1 X143.451 Y92.225 F7800.000
G1 F1800.000 E7.29015
G92 E0
G1 Z5.900 F7800.000
G1 X52.750 Y92.725 F7800.000
G1 E1.00000 F1800.000
M106 S255
G1 X52.750 Y92.025 E1.05714 F3600.000
G1 X56.309 Y92.025 E1.34771
M106 S255
G1 X143.968 Y92.725 F7800.000
G1 X56.309 Y92.725 E4.99211 F600.000
G1 X56.309 Y92.025 F7800.000
G1 X143.968 Y92.025 E8.63652 F600.000
M106 S255
G1 X147.250 Y92.025 E8.90447 F3600.000
G1 X147.250 Y92.725 E8.96161
G1 X143.968 Y92.725 E9.22956
M106 S255
G1 X56.309 Y92.725 F7800.000
M106 S255
G1 X52.825 Y92.725 E9.51400 F3600.000
M106 S255
G1 F1800.000 E8.51400
G92 E0
G1 Z6.100 F7800.000
G1 X52.750 Y92.725 F7800.000
G1 E1.00000 F1800.000
G1 X52.750 Y92.025 E1.02910 F600.000
G1 X147.250 Y92.025 E4.95796
G1 X147.250 Y92.725 E4.98706
G1 X52.825 Y92.725 E8.91279
G1 X53.000 Y92.292 F7800.000
G1 F1800.000 E7.91279
G92 E0
G1 Z6.300 F7800.000
G1 X52.750 Y92.725 F7800.000
G1 E1.00000 F1800.000
G1 X52.750 Y92.025 E1.02910 F600.000
G1 X147.250 Y92.025 E4.95796
G1 X147.250 Y92.725 E4.98706
G1 X52.825 Y92.725 E8.91279
G1 X53.000 Y92.292 F7800.000
G1 F1800.000 E7.91279
G92 E0
G1 Z6.500 F7800.000
G1 X52.750 Y92.725 F7800.000
G1 E1.00000 F1800.000
G1 X52.750 Y92.025 E1.02910 F600.000
G1 X147.250 Y92.025 E4.95796
G1 X147.250 Y92.725 E4.98706
G1 X52.825 Y92.725 E8.91279
G1 X53.000 Y92.292 F7800.000
G1 F1800.000 E7.91279
G92 E0
G1 Z6.700 F7800.000
G1 X52.750 Y92.725 F7800.000
G1 E1.00000 F1800.000
G1 X52.750 Y92.025 E1.02910 F600.000
G1 X147.250 Y92.025 E4.95796
G1 X147.250 Y92.725 E4.98706
G1 X52.825 Y92.725 E8.91279
G1 X53.000 Y92.292 F7800.000
G1 F1800.000 E7.91279
G92 E0
G1 Z6.900 F7800.000
G1 X52.750 Y92.725 F7800.000
G1 E1.00000 F1800.000
G1 X52.750 Y92.025 E1.02910 F600.000
G1 X147.250 Y92.025 E4.95796
G1 X147.250 Y92.725 E4.98706
G1 X52.825 Y92.725 E8.91279
G1 X53.000 Y92.292 F7800.000
G1 F1800.000 E7.91279
G92 E0
G1 Z7.100 F7800.000
G1 X52.750 Y92.725 F7800.000
G1 E1.00000 F1800.000
G1 X52.750 Y92.025 E1.02910 F600.000
G1 X147.250 Y92.025 E4.95796
G1 X147.250 Y92.725 E4.98706
G1 X52.825 Y92.725 E8.91279
G1 X53.000 Y92.292 F7800.000
G1 F1800.000 E7.91279
G92 E0
G1 Z7.300 F7800.000
G1 X52.750 Y92.725 F7800.000
G1 E1.00000 F1800.000
G1 X52.750 Y92.025 E1.02910 F600.000
G1 X147.250 Y92.025 E4.95796
G1 X147.250 Y92.725 E4.98706
G1 X52.825 Y92.725 E8.91279
G1 X53.000 Y92.292 F7800.000
G1 F1800.000 E7.91279
G92 E0
G1 Z7.500 F7800.000
G1 X52.750 Y92.725 F7800.000
G1 E1.00000 F1800.000
G1 X52.750 Y92.025 E1.02910 F600.000
G1 X147.250 Y92.025 E4.95796
G1 X147.250 Y92.725 E4.98706
G1 X52.825 Y92.725 E8.91279
G1 X53.000 Y92.292 F7800.000
G1 F1800.000 E7.91279
G92 E0
G1 Z7.700 F7800.000
G1 X52.750 Y92.725 F7800.000
G1 E1.00000 F1800.000
G1 X52.750 Y92.025 E1.02910 F600.000
G1 X147.250 Y92.025 E4.95796
G1 X147.250 Y92.725 E4.98706
G1 X52.825 Y92.725 E8.91279
G1 X53.000 Y92.292 F7800.000
G1 F1800.000 E7.91279
G92 E0
G1 Z7.900 F7800.000
G1 X52.750 Y92.725 F7800.000
G1 E1.00000 F1800.000
G1 X52.750 Y92.025 E1.02910 F600.000
G1 X147.250 Y92.025 E4.95796
G1 X147.250 Y92.725 E4.98706
G1 X52.825 Y92.725 E8.91279
G1 X53.000 Y92.292 F7800.000
G1 F1800.000 E7.91279
G92 E0
G1 Z8.100 F7800.000
G1 X52.750 Y92.725 F7800.000
G1 E1.00000 F1800.000
G1 X52.750 Y92.025 E1.02910 F600.000
G1 X147.250 Y92.025 E4.95796
G1 X147.250 Y92.725 E4.98706
G1 X52.825 Y92.725 E8.91279
G1 X53.000 Y92.292 F7800.000
G1 F1800.000 E7.91279
G92 E0
G1 Z8.300 F7800.000
G1 X52.750 Y92.725 F7800.000
G1 E1.00000 F1800.000
G1 X52.750 Y92.025 E1.02910 F600.000
G1 X147.250 Y92.025 E4.95796
G1 X147.250 Y92.725 E4.98706
G1 X52.825 Y92.725 E8.91279
G1 X53.000 Y92.292 F7800.000
G1 F1800.000 E7.91279
G92 E0
G1 Z8.500 F7800.000
G1 X52.750 Y92.725 F7800.000
G1 E1.00000 F1800.000
G1 X52.750 Y92.025 E1.02910 F600.000
G1 X147.250 Y92.025 E4.95796
G1 X147.250 Y92.725 E4.98706
G1 X52.825 Y92.725 E8.91279
G1 X53.000 Y92.292 F7800.000
G1 F1800.000 E7.91279
G92 E0
G1 Z8.700 F7800.000
G1 X54.614 Y97.364 F7800.000
G1 E1.00000 F1800.000
M106 S255
G1 X54.809 Y97.286 E1.01713 F3600.000
G1 X55.059 Y97.232 E1.03798
G1 X55.314 Y97.221 E1.05882
G1 X55.567 Y97.254 E1.07966
M106 S255
M106 S255
G1 X55.811 Y97.328 E1.10050 F3600.000
G1 X56.039 Y97.443 E1.12135
G1 X56.244 Y97.595 E1.14219
G1 X56.421 Y97.779 E1.16303
G1 X56.564 Y97.991 E1.18387
G1 X56.669 Y98.224 E1.20471
G1 X56.734 Y98.471 E1.22559
G1 X56.755 Y98.725 E1.24640
G1 X56.734 Y98.979 E1.26720
G1 X56.669 Y99.226 E1.28808
G1 X56.564 Y99.459 E1.30892
G1 X56.421 Y99.671 E1.32976
G1 X56.244 Y99.855 E1.35061
G1 X56.039 Y100.007 E1.37145
G1 X55.811 Y100.122 E1.39229
G1 X55.567 Y100.196 E1.41313
G1 X55.314 Y100.229 E1.43397
G1 X55.059 Y100.218 E1.45482
G1 X54.809 Y100.164 E1.47566
G1 X54.572 Y100.069 E1.49650
G1 X54.355 Y99.935 E1.51734
G1 X54.163 Y99.767 E1.53818
G1 X54.003 Y99.568 E1.55902
G1 X53.878 Y99.345 E1.57986
G1 X53.793 Y99.104 E1.60071
G1 X53.751 Y98.858 E1.62111
G1 X53.751 Y98.592 E1.64281
G1 X53.793 Y98.346 E1.66322
G1 X53.878 Y98.105 E1.68406
G1 X54.003 Y97.882 E1.70490
G1 X54.163 Y97.683 E1.72574
G1 X54.355 Y97.515 E1.74659
G1 X54.547 Y97.396 E1.76501
M106 S255
G1 X58.750 Y94.975 F7800.000
M106 S255
G1 X58.750 Y104.665 E2.55606 F3600.000
G1 X53.750 Y104.665 E2.96422
G1 X53.750 Y100.737 E3.28489
G1 X54.120 Y100.965 E3.32041
G1 X54.515 Y101.124 E3.35515
G1 X54.931 Y101.214 E3.38988
G1 X55.356 Y101.232 E3.42462
G1 X55.779 Y101.178 E3.45936
G1 X56.185 Y101.053 E3.49409
G1 X56.565 Y100.861 E3.52883
G1 X56.908 Y100.608 E3.56357
G1 X57.202 Y100.301 E3.59831
G1 X57.440 Y99.949 E3.63305
G1 X57.616 Y99.561 E3.66779
G1 X57.723 Y99.149 E3.70256
G1 X57.759 Y98.725 E3.73726
G1 X57.723 Y98.301 E3.77196
G1 X57.616 Y97.889 E3.80674
G1 X57.440 Y97.501 E3.84148
G1 X57.202 Y97.149 E3.87622
G1 X56.908 Y96.842 E3.91095
G1 X56.565 Y96.589 E3.94569
G1 X56.185 Y96.397 E3.98043
G1 X55.779 Y96.272 E4.01517
G1 X55.356 Y96.218 E4.04990
G1 X54.931 Y96.236 E4.08464
G1 X54.515 Y96.326 E4.11938
G1 X54.120 Y96.485 E4.15412
G1 X53.750 Y96.713 E4.18963
G1 X53.750 Y93.225 E4.47436
M106 S255
G1 X53.750 Y93.025 E4.48267 F1286.519
G1 X128.000 Y93.025 E7.56963
G1 X128.000 Y93.225 E7.57794
M106 S255
G1 X128.000 Y94.975 E7.72080 F3600.000
G1 X58.825 Y94.975 E13.36774
M106 S255
G1 X59.250 Y95.475 F7800.000
M106 S255
G1 X59.250 Y105.165 E14.15879 F3600.000
G1 X53.250 Y105.165 E14.64858
G1 X53.250 Y99.856 E15.08200
G1 X53.517 Y99.762 E15.10509
G1 X53.801 Y100.114 E15.14203
G1 X54.057 Y100.339 E15.16981
G1 X54.346 Y100.517 E15.19761
G1 X54.662 Y100.644 E15.22540
G1 X54.995 Y100.716 E15.25318
G1 X55.335 Y100.730 E15.28097
G1 X55.673 Y100.687 E15.30877
G1 X55.998 Y100.587 E15.33655
G1 X56.302 Y100.434 E15.36434
G1 X56.576 Y100.232 E15.39214
G1 X56.812 Y99.986 E15.41992
G1 X57.002 Y99.704 E15.44771
G1 X57.142 Y99.394 E15.47551
G1 X57.228 Y99.064 E15.50333
G1 X57.257 Y98.725 E15.53108
G1 X57.228 Y98.386 E15.55884
G1 X57.142 Y98.056 E15.58666
G1 X57.002 Y97.746 E15.61445
G1 X56.812 Y97.464 E15.64225
G1 X56.576 Y97.218 E15.67003
G1 X56.302 Y97.016 E15.69782
G1 X55.998 Y96.863 E15.72561
G1 X55.673 Y96.763 E15.75340
G1 X55.335 Y96.720 E15.78119
G1 X54.995 Y96.734 E15.80898
G1 X54.662 Y96.806 E15.83678
G1 X54.346 Y96.933 E15.86456
G1 X54.057 Y97.111 E15.89235
G1 X53.801 Y97.336 E15.92014
G1 X53.517 Y97.688 E15.95708
G1 X53.250 Y97.594 E15.98017
G1 X53.250 Y93.225 E16.33682
M106 S255
G1 X53.250 Y92.525 E16.36593 F1286.519
G1 X128.500 Y92.525 E19.49446
G1 X128.500 Y93.225 E19.52356
M106 S255
G1 X128.500 Y105.165 E20.49828 F3600.000
G1 X127.250 Y105.165 E20.60032
G1 X127.250 Y95.475 E21.39137
G1 X59.325 Y95.475 E26.93627
M106 S255
G1 X129.000 Y92.725 F7800.000
G1 X129.000 Y93.225 E26.95706 F900.563
M106 S255
G1 X129.000 Y105.665 E27.97259 F3600.000
G1 X126.750 Y105.665 E28.15627
G1 X126.750 Y95.975 E28.94732
G1 X59.750 Y95.975 E34.41670
G1 X59.750 Y105.665 E35.20775
G1 X52.750 Y105.665 E35.77918
G1 X52.750 Y93.225 E36.79472
M106 S255
