; generated by Slic3r 1.1.7 on 2015-03-02 at 15:04:41

; perimeters extrusion width = 0.50mm
; infill extrusion width = 1.02mm
; solid infill extrusion width = 0.85mm
; top infill extrusion width = 0.85mm

G21 ; set units to millimeters
M107
M190 S115 ; wait for bed temperature to be reached
M104 S220 ; set temperature
G28 ; home all axes
G1 Z5 F5000 ; lift nozzle

M109 S220 ; wait for temperature to be reached
G90 ; use absolute coordinates
G92 E0
M82 ; use absolute distances for extrusion
G1 F1800.000 E-1.00000
G92 E0
G1 Z0.500 F7800.000
G1 X54.912 Y85.890 F7800.000
G1 E1.00000 F1800.000
G1 X57.087 Y85.029 E1.14774 F897.168
G1 X58.500 Y84.882 E1.23742
G1 X141.500 Y84.882 E6.47850
G1 X143.806 Y85.279 E6.62624
G1 X145.846 Y86.425 E6.77398 F897.168
G1 X147.385 Y88.187 E6.92172
G1 X148.246 Y90.362 E7.06947
G1 X148.393 Y91.775 E7.15915
G1 X148.393 Y92.975 E7.23492
G1 X147.996 Y95.281 E7.38266
G1 X146.850 Y97.321 E7.53040
G1 X145.088 Y98.860 E7.67814
G1 X142.913 Y99.721 E7.82588
G1 X141.500 Y99.868 E7.91556
G1 X58.500 Y99.868 E13.15664
G1 X56.194 Y99.471 E13.30439
G1 X54.154 Y98.325 E13.45213
G1 X52.615 Y96.563 E13.59987
G1 X51.754 Y94.388 E13.74761
G1 X51.607 Y92.975 E13.83729
G1 X51.607 Y91.775 E13.91306
G1 X52.004 Y89.469 E14.06080
G1 X53.150 Y87.429 E14.20855
G1 X54.855 Y85.939 E14.35155
G1 F1800.000 E13.35155
G92 E0
G1 X141.500 Y92.375 F7800.000
G1 E1.00000 F1800.000
G1 X58.500 Y92.375 E6.24108 F600.000
M106 S255
M104 S215 ; set temperature
M140 S110 ; set bed temperature
G1 F1800.000 E5.24108
G92 E0
G1 Z0.700 F7800.000
G1 X141.250 Y92.725 F7800.000
G1 E1.00000 F1800.000
G1 X58.750 Y92.725 E2.16714 F600.000
G1 X58.750 Y92.025 E2.17704
G1 X141.250 Y92.025 E3.34418
G1 X141.250 Y92.650 E3.35302
G1 X140.817 Y92.475 F7800.000
G1 F1800.000 E2.35302
G92 E0
G1 Z0.900 F7800.000
G1 X141.250 Y92.725 F7800.000
G1 E1.00000 F1800.000
G1 X58.750 Y92.725 E2.16714 F600.000
G1 X58.750 Y92.025 E2.17704
G1 X141.250 Y92.025 E3.34418
G1 X141.250 Y92.650 E3.35302
G1 X140.817 Y92.475 F7800.000
G1 F1800.000 E2.35302
G92 E0
G1 Z1.100 F7800.000
G1 X141.250 Y92.725 F7800.000
G1 E1.00000 F1800.000
G1 X58.750 Y92.725 E2.16714 F600.000
G1 X58.750 Y92.025 E2.17704
G1 X141.250 Y92.025 E3.34418
G1 X141.250 Y92.650 E3.35302
G1 X140.817 Y92.475 F7800.000
G1 F1800.000 E2.35302
G92 E0
G1 Z1.300 F7800.000
G1 X141.250 Y92.725 F7800.000
G1 E1.00000 F1800.000
G1 X58.750 Y92.725 E2.16714 F600.000
G1 X58.750 Y92.025 E2.17704
G1 X141.250 Y92.025 E3.34418
G1 X141.250 Y92.650 E3.35302
G1 X140.817 Y92.475 F7800.000
G1 F1800.000 E2.35302
G92 E0
G1 Z1.500 F7800.000
G1 X141.250 Y92.725 F7800.000
G1 E1.00000 F1800.000
G1 X58.750 Y92.725 E2.16714 F600.000
G1 X58.750 Y92.025 E2.17704
G1 X141.250 Y92.025 E3.34418
G1 X141.250 Y92.650 E3.35302
G1 X140.817 Y92.475 F7800.000
G1 F1800.000 E2.35302
G92 E0
G1 Z1.700 F7800.000
G1 X141.250 Y92.725 F7800.000
G1 E1.00000 F1800.000
G1 X58.750 Y92.725 E2.16714 F600.000
G1 X58.750 Y92.025 E2.17704
G1 X141.250 Y92.025 E3.34418
G1 X141.250 Y92.650 E3.35302
G1 X140.817 Y92.475 F7800.000
G1 F1800.000 E2.35302
G92 E0
G1 Z1.900 F7800.000
G1 X141.250 Y92.725 F7800.000
G1 E1.00000 F1800.000
G1 X58.750 Y92.725 E2.16714 F600.000
G1 X58.750 Y92.025 E2.17704
G1 X141.250 Y92.025 E3.34418
G1 X141.250 Y92.650 E3.35302
G1 X140.817 Y92.475 F7800.000
G1 F1800.000 E2.35302
G92 E0
G1 Z2.100 F7800.000
G1 X141.250 Y92.725 F7800.000
G1 E1.00000 F1800.000
G1 X58.750 Y92.725 E2.16714 F600.000
G1 X58.750 Y92.025 E2.17704
G1 X141.250 Y92.025 E3.34418
G1 X141.250 Y92.650 E3.35302
G1 X140.817 Y92.475 F7800.000
G1 F1800.000 E2.35302
G92 E0
G1 Z2.300 F7800.000
G1 X141.250 Y92.725 F7800.000
G1 E1.00000 F1800.000
G1 X58.750 Y92.725 E2.16714 F600.000
G1 X58.750 Y92.025 E2.17704
G1 X141.250 Y92.025 E3.34418
G1 X141.250 Y92.650 E3.35302
G1 X140.817 Y92.475 F7800.000
G1 F1800.000 E2.35302
G92 E0
G1 Z2.500 F7800.000
G1 X141.250 Y92.725 F7800.000
G1 E1.00000 F1800.000
G1 X58.750 Y92.725 E2.16714 F600.000
G1 X58.750 Y92.025 E2.17704
G1 X141.250 Y92.025 E3.34418
G1 X141.250 Y92.650 E3.35302
G1 X140.817 Y92.475 F7800.000
G1 F1800.000 E2.35302
G92 E0
G1 Z2.700 F7800.000
G1 X141.251 Y92.725 F7800.000
G1 E1.00000 F1800.000
G1 X58.751 Y92.725 E2.16714 F600.000
G1 X58.751 Y92.025 E2.17704
G1 X141.251 Y92.025 E3.34419
G1 X141.251 Y92.650 E3.35303
G1 X140.818 Y92.475 F7800.000
G1 F1800.000 E2.35303
G92 E0
G1 Z2.900 F7800.000
G1 X141.262 Y92.725 F7800.000
G1 E1.00000 F1800.000
G1 X58.758 Y92.725 E2.16719 F600.000
G1 X58.758 Y92.025 E2.17710
G1 X141.262 Y92.025 E3.34429
G1 X141.262 Y92.650 E3.35313
G1 X140.829 Y92.475 F7800.000
G1 F1800.000 E2.35313
G92 E0
G1 Z3.100 F7800.000
G1 X141.273 Y92.725 F7800.000
G1 E1.00000 F1800.000
G1 X58.765 Y92.725 E2.16724 F600.000
G1 X58.765 Y92.025 E2.17715
G1 X141.273 Y92.025 E3.34439
G1 X141.273 Y92.650 E3.35323
G1 X140.840 Y92.475 F7800.000
G1 F1800.000 E2.35323
G92 E0
G1 Z3.300 F7800.000
G1 X141.306 Y92.725 F7800.000
G1 E1.00000 F1800.000
G1 X58.745 Y92.725 E2.16800 F600.000
G1 X58.745 Y92.025 E2.17790
G1 X141.306 Y92.025 E3.34590
G1 X141.306 Y92.650 E3.35474
G1 X140.873 Y92.475 F7800.000
G1 F1800.000 E2.35474
G92 E0
G1 Z3.500 F7800.000
G1 X141.349 Y92.725 F7800.000
G1 E1.00000 F1800.000
G1 X58.721 Y92.725 E2.16895 F600.000
G1 X58.721 Y92.025 E2.17885
G1 X141.349 Y92.025 E3.34780
G1 X141.349 Y92.650 E3.35664
G1 X140.916 Y92.475 F7800.000
G1 F1800.000 E2.35664
G92 E0
G1 Z3.700 F7800.000
G1 X141.403 Y92.725 F7800.000
G1 E1.00000 F1800.000
G1 X58.675 Y92.725 E2.17036 F600.000
G1 X58.675 Y92.025 E2.18027
G1 X141.403 Y92.025 E3.35063
G1 X141.403 Y92.650 E3.35947
G1 X140.970 Y92.475 F7800.000
G1 F1800.000 E2.35947
G92 E0
G1 Z3.900 F7800.000
G1 X141.480 Y92.725 F7800.000
G1 E1.00000 F1800.000
G1 X58.618 Y92.725 E2.17226 F600.000
G1 X58.618 Y92.025 E2.18217
G1 X141.480 Y92.025 E3.35443
G1 X141.480 Y92.650 E3.36327
G1 X141.047 Y92.475 F7800.000
G1 F1800.000 E2.36327
G92 E0
G1 Z4.100 F7800.000
G1 X141.560 Y92.725 F7800.000
G1 E1.00000 F1800.000
G1 X58.542 Y92.725 E2.17447 F600.000
G1 X58.542 Y92.025 E2.18437
G1 X141.560 Y92.025 E3.35883
G1 X141.560 Y92.650 E3.36768
G1 X141.127 Y92.475 F7800.000
G1 F1800.000 E2.36768
G92 E0
G1 Z4.300 F7800.000
G1 X141.676 Y92.725 F7800.000
G1 E1.00000 F1800.000
G1 X58.449 Y92.725 E2.17742 F600.000
G1 X58.449 Y92.025 E2.18732
G1 X141.676 Y92.025 E3.36475
G1 X141.676 Y92.650 E3.37359
G1 X141.243 Y92.475 F7800.000
G1 F1800.000 E2.37359
G92 E0
G1 Z4.500 F7800.000
G1 X141.792 Y92.725 F7800.000
G1 E1.00000 F1800.000
G1 X58.336 Y92.725 E2.18066 F600.000
G1 X58.336 Y92.025 E2.19057
G1 X141.792 Y92.025 E3.37123
G1 X141.792 Y92.650 E3.38007
G1 X141.359 Y92.475 F7800.000
G1 F1800.000 E2.38007
G92 E0
G1 Z4.700 F7800.000
G1 X141.954 Y92.725 F7800.000
G1 E1.00000 F1800.000
G1 X58.201 Y92.725 E2.18486 F600.000
G1 X58.201 Y92.025 E2.19476
G1 X141.954 Y92.025 E3.37963
G1 X141.954 Y92.650 E3.38847
G1 X141.521 Y92.475 F7800.000
G1 F1800.000 E2.38847
G92 E0
G1 Z4.900 F7800.000
G1 X142.124 Y92.725 F7800.000
G1 E1.00000 F1800.000
G1 X58.034 Y92.725 E2.18963 F600.000
G1 X58.034 Y92.025 E2.19953
G1 X142.124 Y92.025 E3.38916
G1 X142.124 Y92.650 E3.39801
G1 X141.691 Y92.475 F7800.000
G1 F1800.000 E2.39801
G92 E0
G1 Z5.100 F7800.000
G1 X142.347 Y92.725 F7800.000
G1 E1.00000 F1800.000
G1 X57.848 Y92.725 E2.19542 F600.000
G1 X57.848 Y92.025 E2.20532
G1 X142.347 Y92.025 E3.40074
G1 X142.347 Y92.650 E3.40958
G1 X141.914 Y92.475 F7800.000
G1 F1800.000 E2.40958
G92 E0
G1 Z5.300 F7800.000
G1 X142.614 Y92.725 F7800.000
G1 E1.00000 F1800.000
G1 X57.592 Y92.725 E2.20280 F600.000
G1 X57.592 Y92.025 E2.21271
G1 X142.614 Y92.025 E3.41551
G1 X142.614 Y92.650 E3.42435
G1 X142.181 Y92.475 F7800.000
G1 F1800.000 E2.42435
G92 E0
G1 Z5.500 F7800.000
G1 X142.951 Y92.725 F7800.000
G1 E1.00000 F1800.000
G1 X57.271 Y92.725 E2.21211 F600.000
G1 X57.271 Y92.025 E2.22202
G1 X142.951 Y92.025 E3.43413
G1 X142.951 Y92.650 E3.44297
G1 X142.518 Y92.475 F7800.000
G1 F1800.000 E2.44297
G92 E0
G1 Z5.700 F7800.000
G1 X56.809 Y92.725 F7800.000
G1 E1.00000 F1800.000
G1 X56.809 Y92.025 E1.00990 F600.000
G1 X143.451 Y92.025 E2.23563
M106 S255
G1 X143.468 Y92.025 E2.23610 F3600.000
G1 X143.468 Y92.725 E2.25554
G1 X143.451 Y92.725 E2.25601
M106 S255
G1 X56.884 Y92.725 E3.48067 F600.000
G1 X143.451 Y92.225 F7800.000
G1 F1800.000 E2.48067
G92 E0
G1 Z5.900 F7800.000
G1 X52.750 Y92.725 F7800.000
G1 E1.00000 F1800.000
M106 S255
G1 X52.750 Y92.025 E1.01944 F3600.000
G1 X56.309 Y92.025 E1.11832
M106 S255
G1 X143.968 Y92.725 F7800.000
G1 X56.309 Y92.725 E2.35843 F600.000
G1 X56.309 Y92.025 F7800.000
G1 X143.968 Y92.025 E3.59854 F600.000
M106 S255
G1 X147.250 Y92.025 E3.68971 F3600.000
G1 X147.250 Y92.725 E3.70916
G1 X143.968 Y92.725 E3.80034
M106 S255
G1 X56.309 Y92.725 F7800.000
M106 S255
G1 X52.825 Y92.725 E3.89713 F3600.000
M106 S255
G1 F1800.000 E2.89713
G92 E0
G1 Z6.100 F7800.000
G1 X52.750 Y92.725 F7800.000
G1 E1.00000 F1800.000
G1 X52.750 Y92.025 E1.00990 F600.000
G1 X147.250 Y92.025 E2.34680
G1 X147.250 Y92.725 E2.35671
G1 X52.825 Y92.725 E3.69255
G1 X53.000 Y92.292 F7800.000
G1 F1800.000 E2.69255
G92 E0
G1 Z6.300 F7800.000
G1 X52.750 Y92.725 F7800.000
G1 E1.00000 F1800.000
G1 X52.750 Y92.025 E1.00990 F600.000
G1 X147.250 Y92.025 E2.34680
G1 X147.250 Y92.725 E2.35671
G1 X52.825 Y92.725 E3.69255
G1 X53.000 Y92.292 F7800.000
G1 F1800.000 E2.69255
G92 E0
G1 Z6.500 F7800.000
G1 X52.750 Y92.725 F7800.000
G1 E1.00000 F1800.000
G1 X52.750 Y92.025 E1.00990 F600.000
G1 X147.250 Y92.025 E2.34680
G1 X147.250 Y92.725 E2.35671
G1 X52.825 Y92.725 E3.69255
G1 X53.000 Y92.292 F7800.000
G1 F1800.000 E2.69255
G92 E0
G1 Z6.700 F7800.000
G1 X52.750 Y92.725 F7800.000
G1 E1.00000 F1800.000
G1 X52.750 Y92.025 E1.00990 F600.000
G1 X147.250 Y92.025 E2.34680
G1 X147.250 Y92.725 E2.35671
G1 X52.825 Y92.725 E3.69255
G1 X53.000 Y92.292 F7800.000
G1 F1800.000 E2.69255
G92 E0
G1 Z6.900 F7800.000
G1 X52.750 Y92.725 F7800.000
G1 E1.00000 F1800.000
G1 X52.750 Y92.025 E1.00990 F600.000
G1 X147.250 Y92.025 E2.34680
G1 X147.250 Y92.725 E2.35671
G1 X52.825 Y92.725 E3.69255
G1 X53.000 Y92.292 F7800.000
G1 F1800.000 E2.69255
G92 E0
G1 Z7.100 F7800.000
G1 X52.750 Y92.725 F7800.000
G1 E1.00000 F1800.000
G1 X52.750 Y92.025 E1.00990 F600.000
G1 X147.250 Y92.025 E2.34680
G1 X147.250 Y92.725 E2.35671
G1 X52.825 Y92.725 E3.69255
G1 X53.000 Y92.292 F7800.000
G1 F1800.000 E2.69255
G92 E0
G1 Z7.300 F7800.000
G1 X52.750 Y92.725 F7800.000
G1 E1.00000 F1800.000
G1 X52.750 Y92.025 E1.00990 F600.000
G1 X147.250 Y92.025 E2.34680
G1 X147.250 Y92.725 E2.35671
G1 X52.825 Y92.725 E3.69255
G1 X53.000 Y92.292 F7800.000
G1 F1800.000 E2.69255
G92 E0
G1 Z7.500 F7800.000
G1 X52.750 Y92.725 F7800.000
G1 E1.00000 F1800.000
G1 X52.750 Y92.025 E1.00990 F600.000
G1 X147.250 Y92.025 E2.34680
G1 X147.250 Y92.725 E2.35671
G1 X52.825 Y92.725 E3.69255
G1 X53.000 Y92.292 F7800.000
G1 F1800.000 E2.69255
G92 E0
G1 Z7.700 F7800.000
G1 X52.750 Y92.725 F7800.000
G1 E1.00000 F1800.000
G1 X52.750 Y92.025 E1.00990 F600.000
G1 X147.250 Y92.025 E2.34680
G1 X147.250 Y92.725 E2.35671
G1 X52.825 Y92.725 E3.69255
G1 X53.000 Y92.292 F7800.000
G1 F1800.000 E2.69255
G92 E0
G1 Z7.900 F7800.000
G1 X52.750 Y92.725 F7800.000
G1 E1.00000 F1800.000
G1 X52.750 Y92.025 E1.00990 F600.000
G1 X147.250 Y92.025 E2.34680
G1 X147.250 Y92.725 E2.35671
G1 X52.825 Y92.725 E3.69255
G1 X53.000 Y92.292 F7800.000
G1 F1800.000 E2.69255
G92 E0
G1 Z8.100 F7800.000
G1 X52.750 Y92.725 F7800.000
G1 E1.00000 F1800.000
G1 X52.750 Y92.025 E1.00990 F600.000
G1 X147.250 Y92.025 E2.34680
G1 X147.250 Y92.725 E2.35671
G1 X52.825 Y92.725 E3.69255
G1 X53.000 Y92.292 F7800.000
G1 F1800.000 E2.69255
G92 E0
G1 Z8.300 F7800.000
G1 X52.750 Y92.725 F7800.000
G1 E1.00000 F1800.000
G1 X52.750 Y92.025 E1.00990 F600.000
G1 X147.250 Y92.025 E2.34680
G1 X147.250 Y92.725 E2.35671
G1 X52.825 Y92.725 E3.69255
G1 X53.000 Y92.292 F7800.000
G1 F1800.000 E2.69255
G92 E0
G1 Z8.500 F7800.000
G1 X52.750 Y92.725 F7800.000
G1 E1.00000 F1800.000
G1 X52.750 Y92.025 E1.00990 F600.000
G1 X147.250 Y92.025 E2.34680
G1 X147.250 Y92.725 E2.35671
G1 X52.825 Y92.725 E3.69255
G1 X53.000 Y92.292 F7800.000
G1 F1800.000 E2.69255
G92 E0
G1 Z8.700 F7800.000
G1 X54.614 Y97.364 F7800.000
G1 E1.00000 F1800.000
M106 S255
G1 X54.809 Y97.286 E1.00583 F3600.000
G1 X55.059 Y97.232 E1.01292
G1 X55.314 Y97.221 E1.02002
G1 X55.567 Y97.254 E1.02711
M106 S255
M106 S255
G1 X55.811 Y97.328 E1.03420 F3600.000
G1 X56.039 Y97.443 E1.04129
G1 X56.244 Y97.595 E1.04838
G1 X56.421 Y97.779 E1.05547
G1 X56.564 Y97.991 E1.06257
G1 X56.669 Y98.224 E1.06966
G1 X56.734 Y98.471 E1.07676
G1 X56.755 Y98.725 E1.08384
G1 X56.734 Y98.979 E1.09092
G1 X56.669 Y99.226 E1.09803
G1 X56.564 Y99.459 E1.10512
G1 X56.421 Y99.671 E1.11221
G1 X56.244 Y99.855 E1.11930
G1 X56.039 Y100.007 E1.12640
G1 X55.811 Y100.122 E1.13349
G1 X55.567 Y100.196 E1.14058
G1 X55.314 Y100.229 E1.14767
G1 X55.059 Y100.218 E1.15476
G1 X54.809 Y100.164 E1.16186
G1 X54.572 Y100.069 E1.16895
G1 X54.355 Y99.935 E1.17604
G1 X54.163 Y99.767 E1.18313
G1 X54.003 Y99.568 E1.19022
G1 X53.878 Y99.345 E1.19732
G1 X53.793 Y99.104 E1.20441
G1 X53.751 Y98.858 E1.21135
G1 X53.751 Y98.592 E1.21873
G1 X53.793 Y98.346 E1.22568
G1 X53.878 Y98.105 E1.23277
G1 X54.003 Y97.882 E1.23986
G1 X54.163 Y97.683 E1.24695
G1 X54.355 Y97.515 E1.25405
G1 X54.547 Y97.396 E1.26032
M106 S255
G1 X58.750 Y94.975 F7800.000
M106 S255
G1 X58.750 Y104.665 E1.52949 F3600.000
G1 X53.750 Y104.665 E1.66838
G1 X53.750 Y100.737 E1.77750
G1 X54.120 Y100.965 E1.78958
G1 X54.515 Y101.124 E1.80140
G1 X54.931 Y101.214 E1.81322
G1 X55.356 Y101.232 E1.82504
G1 X55.779 Y101.178 E1.83687
G1 X56.185 Y101.053 E1.84868
G1 X56.565 Y100.861 E1.86051
G1 X56.908 Y100.608 E1.87233
G1 X57.202 Y100.301 E1.88415
G1 X57.440 Y99.949 E1.89597
G1 X57.616 Y99.561 E1.90779
G1 X57.723 Y99.149 E1.91962
G1 X57.759 Y98.725 E1.93143
G1 X57.723 Y98.301 E1.94324
G1 X57.616 Y97.889 E1.95507
G1 X57.440 Y97.501 E1.96689
G1 X57.202 Y97.149 E1.97871
G1 X56.908 Y96.842 E1.99053
G1 X56.565 Y96.589 E2.00235
G1 X56.185 Y96.397 E2.01417
G1 X55.779 Y96.272 E2.02599
G1 X55.356 Y96.218 E2.03781
G1 X54.931 Y96.236 E2.04963
G1 X54.515 Y96.326 E2.06146
G1 X54.120 Y96.485 E2.07328
G1 X53.750 Y96.713 E2.08536
G1 X53.750 Y93.225 E2.18225
M106 S255
G1 X53.750 Y93.025 E2.18508 F1286.519
G1 X128.000 Y93.025 E3.23550
G1 X128.000 Y93.225 E3.23833
M106 S255
G1 X128.000 Y94.975 E3.28694 F3600.000
G1 X58.825 Y94.975 E5.20847
M106 S255
G1 X59.250 Y95.475 F7800.000
M106 S255
G1 X59.250 Y105.165 E5.47764 F3600.000
G1 X53.250 Y105.165 E5.64431
G1 X53.250 Y99.856 E5.79179
G1 X53.517 Y99.762 E5.79965
G1 X53.801 Y100.114 E5.81222
G1 X54.057 Y100.339 E5.82167
G1 X54.346 Y100.517 E5.83113
G1 X54.662 Y100.644 E5.84059
G1 X54.995 Y100.716 E5.85004
G1 X55.335 Y100.730 E5.85950
G1 X55.673 Y100.687 E5.86896
G1 X55.998 Y100.587 E5.87841
G1 X56.302 Y100.434 E5.88787
G1 X56.576 Y100.232 E5.89732
G1 X56.812 Y99.986 E5.90678
G1 X57.002 Y99.704 E5.91624
G1 X57.142 Y99.394 E5.92569
G1 X57.228 Y99.064 E5.93516
G1 X57.257 Y98.725 E5.94461
G1 X57.228 Y98.386 E5.95405
G1 X57.142 Y98.056 E5.96352
G1 X57.002 Y97.746 E5.97297
G1 X56.812 Y97.464 E5.98243
G1 X56.576 Y97.218 E5.99189
G1 X56.302 Y97.016 E6.00134
G1 X55.998 Y96.863 E6.01080
G1 X55.673 Y96.763 E6.02026
G1 X55.335 Y96.720 E6.02971
G1 X54.995 Y96.734 E6.03917
G1 X54.662 Y96.806 E6.04862
G1 X54.346 Y96.933 E6.05808
G1 X54.057 Y97.111 E6.06754
G1 X53.801 Y97.336 E6.07699
G1 X53.517 Y97.688 E6.08956
G1 X53.250 Y97.594 E6.09742
G1 X53.250 Y93.225 E6.21878
M106 S255
G1 X53.250 Y92.525 E6.22868 F1286.519
G1 X128.500 Y92.525 E7.29325
G1 X128.500 Y93.225 E7.30316
M106 S255
G1 X128.500 Y105.165 E7.63483 F3600.000
G1 X127.250 Y105.165 E7.66955
G1 X127.250 Y95.475 E7.93873
G1 X59.325 Y95.475 E9.82554
M106 S255
G1 X129.000 Y92.725 F7800.000
G1 X129.000 Y93.225 E9.83261 F900.563
M106 S255
G1 X129.000 Y105.665 E10.17817 F3600.000
G1 X126.750 Y105.665 E10.24067
G1 X126.750 Y95.975 E10.50985
G1 X59.750 Y95.975 E12.37096
G1 X59.750 Y105.665 E12.64014
G1 X52.750 Y105.665 E12.83458
G1 X52.750 Y93.225 E13.18015
M106 S255
G1 X52.750 Y92.025 E13.19712 F900.563
G1 X147.250 Y92.025 E14.53403
