; generated by Slic3r 1.1.7 on 2015-03-02 at 15:56:57

; perimeters extrusion width = 0.50mm
; infill extrusion width = 0.70mm
; solid infill extrusion width = 0.70mm
; top infill extrusion width = 0.70mm

G21 ; set units to millimeters
M107
M190 S115 ; wait for bed temperature to be reached
M104 S220 ; set temperature
G28 ; home all axes
G1 Z5 F5000 ; lift nozzle

M109 S220 ; wait for temperature to be reached
G90 ; use absolute coordinates
G92 E0
M82 ; use absolute distances for extrusion
G1 F1800.000 E-1.00000
G92 E0
G1 Z0.500 F7800.000
G1 X54.912 Y85.890 F7800.000
G1 E1.00000 F1800.000
G1 X57.087 Y85.029 E1.43418 F897.168
G1 X58.500 Y84.882 E1.69773
G1 X141.500 Y84.882 E17.10008
G1 X143.806 Y85.279 E17.53426
G1 X145.846 Y86.425 E17.96844 F897.168
G1 X147.385 Y88.187 E18.40262
G1 X148.246 Y90.362 E18.83680
G1 X148.393 Y91.775 E19.10035
G1 X148.393 Y92.975 E19.32303
G1 X147.996 Y95.281 E19.75721
G1 X146.850 Y97.321 E20.19139
G1 X145.088 Y98.860 E20.62556
G1 X142.913 Y99.721 E21.05974
G1 X141.500 Y99.868 E21.32329
G1 X58.500 Y99.868 E36.72565
G1 X56.194 Y99.471 E37.15983
G1 X54.154 Y98.325 E37.59401
G1 X52.615 Y96.563 E38.02818
G1 X51.754 Y94.388 E38.46236
G1 X51.607 Y92.975 E38.72591
G1 X51.607 Y91.775 E38.94860
G1 X52.004 Y89.469 E39.38277
G1 X53.150 Y87.429 E39.81695
G1 X54.855 Y85.939 E40.23721
G1 F1800.000 E39.23721
G92 E0
G1 X141.500 Y92.375 F7800.000
G1 E1.00000 F1800.000
G1 X58.500 Y92.375 E16.40236 F600.000
M106 S255
M104 S215 ; set temperature
M140 S110 ; set bed temperature
G1 F1800.000 E15.40236
G92 E0
G1 Z0.800 F7800.000
G1 X141.250 Y92.725 F7800.000
G1 E1.00000 F1800.000
G1 X58.750 Y92.725 E6.14493 F600.000
G1 X58.750 Y92.025 E6.18858
G1 X141.250 Y92.025 E11.33351
G1 X141.250 Y92.650 E11.37249
G1 X140.817 Y92.475 F7800.000
G1 F1800.000 E10.37249
G92 E0
G1 Z1.100 F7800.000
G1 X141.250 Y92.725 F7800.000
G1 E1.00000 F1800.000
G1 X58.750 Y92.725 E6.14493 F600.000
G1 X58.750 Y92.025 E6.18858
G1 X141.250 Y92.025 E11.33351
G1 X141.250 Y92.650 E11.37249
G1 X140.817 Y92.475 F7800.000
G1 F1800.000 E10.37249
G92 E0
G1 Z1.400 F7800.000
G1 X141.250 Y92.725 F7800.000
G1 E1.00000 F1800.000
G1 X58.750 Y92.725 E6.14493 F600.000
G1 X58.750 Y92.025 E6.18858
G1 X141.250 Y92.025 E11.33351
G1 X141.250 Y92.650 E11.37249
G1 X140.817 Y92.475 F7800.000
G1 F1800.000 E10.37249
G92 E0
G1 Z1.700 F7800.000
G1 X141.250 Y92.725 F7800.000
G1 E1.00000 F1800.000
G1 X58.750 Y92.725 E6.14493 F600.000
G1 X58.750 Y92.025 E6.18858
G1 X141.250 Y92.025 E11.33351
G1 X141.250 Y92.650 E11.37249
G1 X140.817 Y92.475 F7800.000
G1 F1800.000 E10.37249
G92 E0
G1 Z2.000 F7800.000
G1 X141.250 Y92.725 F7800.000
G1 E1.00000 F1800.000
G1 X58.750 Y92.725 E6.14493 F600.000
G1 X58.750 Y92.025 E6.18858
G1 X141.250 Y92.025 E11.33351
G1 X141.250 Y92.650 E11.37249
G1 X140.817 Y92.475 F7800.000
G1 F1800.000 E10.37249
G92 E0
G1 Z2.300 F7800.000
G1 X141.250 Y92.725 F7800.000
G1 E1.00000 F1800.000
G1 X58.750 Y92.725 E6.14493 F600.000
G1 X58.750 Y92.025 E6.18858
G1 X141.250 Y92.025 E11.33351
G1 X141.250 Y92.650 E11.37249
G1 X140.817 Y92.475 F7800.000
G1 F1800.000 E10.37249
G92 E0
G1 Z2.600 F7800.000
G1 X141.250 Y92.725 F7800.000
G1 E1.00000 F1800.000
G1 X58.750 Y92.725 E6.14493 F600.000
G1 X58.750 Y92.025 E6.18858
G1 X141.250 Y92.025 E11.33351
G1 X141.250 Y92.650 E11.37249
G1 X140.817 Y92.475 F7800.000
G1 F1800.000 E10.37249
G92 E0
G1 Z2.900 F7800.000
G1 X141.259 Y92.725 F7800.000
G1 E1.00000 F1800.000
G1 X58.756 Y92.725 E6.14512 F600.000
G1 X58.756 Y92.025 E6.18877
G1 X141.259 Y92.025 E11.33389
G1 X141.259 Y92.650 E11.37287
G1 X140.826 Y92.475 F7800.000
G1 F1800.000 E10.37287
G92 E0
G1 Z3.200 F7800.000
G1 X141.275 Y92.725 F7800.000
G1 E1.00000 F1800.000
G1 X58.763 Y92.725 E6.14570 F600.000
G1 X58.763 Y92.025 E6.18935
G1 X141.275 Y92.025 E11.33505
G1 X141.275 Y92.650 E11.37403
G1 X140.842 Y92.475 F7800.000
G1 F1800.000 E10.37403
G92 E0
G1 Z3.500 F7800.000
G1 X141.338 Y92.725 F7800.000
G1 E1.00000 F1800.000
G1 X58.727 Y92.725 E6.15187 F600.000
G1 X58.727 Y92.025 E6.19552
G1 X141.338 Y92.025 E11.34739
G1 X141.338 Y92.650 E11.38636
G1 X140.905 Y92.475 F7800.000
G1 F1800.000 E10.38636
G92 E0
G1 Z3.800 F7800.000
G1 X141.422 Y92.725 F7800.000
G1 E1.00000 F1800.000
G1 X58.660 Y92.725 E6.16125 F600.000
G1 X58.660 Y92.025 E6.20490
G1 X141.422 Y92.025 E11.36615
G1 X141.422 Y92.650 E11.40512
G1 X140.989 Y92.475 F7800.000
G1 F1800.000 E10.40512
G92 E0
G1 Z4.100 F7800.000
G1 X141.538 Y92.725 F7800.000
G1 E1.00000 F1800.000
G1 X58.565 Y92.725 E6.17439 F600.000
G1 X58.565 Y92.025 E6.21805
G1 X141.538 Y92.025 E11.39244
G1 X141.538 Y92.650 E11.43141
G1 X141.105 Y92.475 F7800.000
G1 F1800.000 E10.43141
G92 E0
G1 Z4.400 F7800.000
G1 X141.705 Y92.725 F7800.000
G1 E1.00000 F1800.000
G1 X58.426 Y92.725 E6.19352 F600.000
G1 X58.426 Y92.025 E6.23718
G1 X141.705 Y92.025 E11.43070
G1 X141.705 Y92.650 E11.46968
G1 X141.272 Y92.475 F7800.000
G1 F1800.000 E10.46968
G92 E0
G1 Z4.700 F7800.000
G1 X141.914 Y92.725 F7800.000
G1 E1.00000 F1800.000
G1 X58.235 Y92.725 E6.21843 F600.000
G1 X58.235 Y92.025 E6.26209
G1 X141.914 Y92.025 E11.48052
G1 X141.914 Y92.650 E11.51949
G1 X141.481 Y92.475 F7800.000
G1 F1800.000 E10.51949
G92 E0
G1 Z5.000 F7800.000
G1 X142.180 Y92.725 F7800.000
G1 E1.00000 F1800.000
G1 X57.987 Y92.725 E6.25046 F600.000
G1 X57.987 Y92.025 E6.29412
G1 X142.180 Y92.025 E11.54458
G1 X142.180 Y92.650 E11.58355
G1 X141.747 Y92.475 F7800.000
G1 F1800.000 E10.58355
G92 E0
G1 Z5.300 F7800.000
G1 X142.536 Y92.725 F7800.000
G1 E1.00000 F1800.000
G1 X57.656 Y92.725 E6.29336 F600.000
G1 X57.656 Y92.025 E6.33701
G1 X142.536 Y92.025 E11.63037
G1 X142.536 Y92.650 E11.66935
G1 X142.103 Y92.475 F7800.000
G1 F1800.000 E10.66935
G92 E0
G1 Z5.600 F7800.000
G1 X57.181 Y92.725 F7800.000
G1 E1.00000 F1800.000
G1 X57.181 Y92.025 E1.04365 F600.000
G1 X143.036 Y92.025 E6.39780
M106 S255
G1 X143.063 Y92.025 E6.40002 F3600.000
G1 X143.063 Y92.725 E6.45716
G1 X143.036 Y92.725 E6.45939
M106 S255
G1 X57.256 Y92.725 E11.80886 F600.000
G1 X143.036 Y92.225 F7800.000
G1 F1800.000 E10.80886
G92 E0
G1 Z5.900 F7800.000
G1 X52.750 Y92.725 F7800.000
G1 E1.00000 F1800.000
M106 S255
G1 X52.750 Y92.025 E1.05714 F3600.000
G1 X56.681 Y92.025 E1.37807
M106 S255
G1 X143.563 Y92.725 F7800.000
G1 X56.681 Y92.725 E6.79628 F600.000
G1 X56.681 Y92.025 F7800.000
G1 X143.563 Y92.025 E12.21449 F600.000
M106 S255
G1 X147.250 Y92.025 E12.51543 F3600.000
G1 X147.250 Y92.725 E12.57257
G1 X143.563 Y92.725 E12.87351
M106 S255
G1 X56.681 Y92.725 F7800.000
M106 S255
G1 X52.825 Y92.725 E13.18832 F3600.000
M106 S255
G1 F1800.000 E12.18832
G92 E0
G1 Z6.200 F7800.000
G1 X52.750 Y92.725 F7800.000
G1 E1.00000 F1800.000
G1 X52.750 Y92.025 E1.04365 F600.000
G1 X147.250 Y92.025 E6.93693
G1 X147.250 Y92.725 E6.98059
G1 X52.825 Y92.725 E12.86919
G1 X53.000 Y92.292 F7800.000
G1 F1800.000 E11.86919
G92 E0
G1 Z6.500 F7800.000
G1 X52.750 Y92.725 F7800.000
G1 E1.00000 F1800.000
G1 X52.750 Y92.025 E1.04365 F600.000
G1 X147.250 Y92.025 E6.93693
G1 X147.250 Y92.725 E6.98059
G1 X52.825 Y92.725 E12.86919
G1 X53.000 Y92.292 F7800.000
G1 F1800.000 E11.86919
G92 E0
G1 Z6.800 F7800.000
G1 X52.750 Y92.725 F7800.000
G1 E1.00000 F1800.000
G1 X52.750 Y92.025 E1.04365 F600.000
G1 X147.250 Y92.025 E6.93693
G1 X147.250 Y92.725 E6.98059
G1 X52.825 Y92.725 E12.86919
G1 X53.000 Y92.292 F7800.000
G1 F1800.000 E11.86919
G92 E0
G1 Z7.100 F7800.000
G1 X52.750 Y92.725 F7800.000
G1 E1.00000 F1800.000
G1 X52.750 Y92.025 E1.04365 F600.000
G1 X147.250 Y92.025 E6.93693
G1 X147.250 Y92.725 E6.98059
G1 X52.825 Y92.725 E12.86919
G1 X53.000 Y92.292 F7800.000
G1 F1800.000 E11.86919
G92 E0
G1 Z7.400 F7800.000
G1 X52.750 Y92.725 F7800.000
G1 E1.00000 F1800.000
G1 X52.750 Y92.025 E1.04365 F600.000
G1 X147.250 Y92.025 E6.93693
G1 X147.250 Y92.725 E6.98059
G1 X52.825 Y92.725 E12.86919
G1 X53.000 Y92.292 F7800.000
G1 F1800.000 E11.86919
G92 E0
G1 Z7.700 F7800.000
G1 X52.750 Y92.725 F7800.000
G1 E1.00000 F1800.000
G1 X52.750 Y92.025 E1.04365 F600.000
G1 X147.250 Y92.025 E6.93693
G1 X147.250 Y92.725 E6.98059
G1 X52.825 Y92.725 E12.86919
G1 X53.000 Y92.292 F7800.000
G1 F1800.000 E11.86919
G92 E0
G1 Z8.000 F7800.000
G1 X52.750 Y92.725 F7800.000
G1 E1.00000 F1800.000
G1 X52.750 Y92.025 E1.04365 F600.000
G1 X147.250 Y92.025 E6.93693
G1 X147.250 Y92.725 E6.98059
G1 X52.825 Y92.725 E12.86919
G1 X53.000 Y92.292 F7800.000
G1 F1800.000 E11.86919
G92 E0
G1 Z8.300 F7800.000
G1 X52.750 Y92.725 F7800.000
G1 E1.00000 F1800.000
G1 X52.750 Y92.025 E1.04365 F600.000
G1 X147.250 Y92.025 E6.93693
G1 X147.250 Y92.725 E6.98059
G1 X52.825 Y92.725 E12.86919
G1 X53.000 Y92.292 F7800.000
G1 F1800.000 E11.86919
G92 E0
G1 Z8.600 F7800.000
G1 X52.750 Y92.725 F7800.000
G1 E1.00000 F1800.000
G1 X52.750 Y92.025 E1.04365 F600.000
G1 X147.250 Y92.025 E6.93693
G1 X147.250 Y92.725 E6.98059
G1 X52.825 Y92.725 E12.86919
G1 X53.000 Y92.292 F7800.000
G1 F1800.000 E11.86919
G92 E0
G1 Z8.900 F7800.000
G1 X54.614 Y97.364 F7800.000
G1 E1.00000 F1800.000
M106 S255
G1 X54.809 Y97.286 E1.01714 F3600.000
G1 X55.059 Y97.232 E1.03798
G1 X55.346 Y97.225 E1.06141
M106 S255
M106 S255
G1 X55.567 Y97.254 E1.07963 F3600.000
G1 X55.811 Y97.328 E1.10047
G1 X56.039 Y97.443 E1.12132
G1 X56.244 Y97.595 E1.14216
G1 X56.421 Y97.779 E1.16300
G1 X56.564 Y97.991 E1.18384
G1 X56.669 Y98.224 E1.20468
G1 X56.732 Y98.465 E1.22509
G1 X56.754 Y98.709 E1.24506
G1 X56.732 Y98.985 E1.26761
G1 X56.669 Y99.226 E1.28802
G1 X56.564 Y99.459 E1.30886
G1 X56.421 Y99.671 E1.32971
G1 X56.245 Y99.855 E1.35054
G1 X56.039 Y100.007 E1.37139
G1 X55.811 Y100.122 E1.39223
G1 X55.567 Y100.196 E1.41307
G1 X55.314 Y100.229 E1.43391
G1 X55.059 Y100.218 E1.45475
G1 X54.809 Y100.164 E1.47559
G1 X54.572 Y100.069 E1.49644
G1 X54.355 Y99.935 E1.51728
G1 X54.163 Y99.767 E1.53812
G1 X54.003 Y99.568 E1.55896
G1 X53.878 Y99.345 E1.57981
G1 X53.793 Y99.104 E1.60065
G1 X53.751 Y98.858 E1.62105
G1 X53.751 Y98.592 E1.64275
G1 X53.793 Y98.346 E1.66316
G1 X53.878 Y98.105 E1.68400
G1 X54.003 Y97.882 E1.70485
G1 X54.163 Y97.683 E1.72568
G1 X54.355 Y97.515 E1.74653
G1 X54.547 Y97.396 E1.76495
M106 S255
G1 X58.750 Y94.975 F7800.000
M106 S255
G1 X58.750 Y105.127 E2.59368 F3600.000
G1 X53.750 Y105.127 E3.00184
G1 X53.750 Y100.737 E3.36020
G1 X54.121 Y100.965 E3.39572
G1 X54.516 Y101.124 E3.43047
G1 X54.932 Y101.214 E3.46521
G1 X55.357 Y101.232 E3.49993
G1 X55.662 Y101.192 E3.52511
G1 X55.779 Y101.178 E3.53468
G1 X56.186 Y101.053 E3.56941
G1 X56.565 Y100.861 E3.60413
G1 X56.908 Y100.608 E3.63889
G1 X57.202 Y100.301 E3.67360
G1 X57.440 Y99.949 E3.70835
G1 X57.616 Y99.561 E3.74310
G1 X57.716 Y99.175 E3.77566
G1 X57.754 Y98.783 E3.80775
G1 X57.716 Y98.275 E3.84936
G1 X57.616 Y97.889 E3.88192
G1 X57.440 Y97.501 E3.91665
G1 X57.202 Y97.149 E3.95140
G1 X56.907 Y96.842 E3.98614
G1 X56.566 Y96.589 E4.02085
G1 X56.185 Y96.397 E4.05562
G1 X55.779 Y96.272 E4.09034
G1 X55.357 Y96.218 E4.12508
G1 X54.931 Y96.236 E4.15981
G1 X54.515 Y96.326 E4.19454
G1 X54.120 Y96.485 E4.22931
G1 X53.750 Y96.713 E4.26481
G1 X53.750 Y93.225 E4.54954
M106 S255
G1 X53.750 Y93.025 E4.56201 F1322.105
G1 X128.000 Y93.025 E9.19244
G1 X128.000 Y93.225 E9.20492
M106 S255
G1 X128.000 Y94.975 E9.34777 F3600.000
G1 X58.825 Y94.975 E14.99471
M106 S255
G1 X59.250 Y95.475 F7800.000
M106 S255
G1 X59.250 Y105.627 E15.82345 F3600.000
G1 X53.250 Y105.627 E16.31324
G1 X53.250 Y99.856 E16.78434
G1 X53.517 Y99.762 E16.80744
G1 X53.801 Y100.114 E16.84438
G1 X54.057 Y100.339 E16.87216
G1 X54.346 Y100.517 E16.89995
G1 X54.662 Y100.644 E16.92775
G1 X54.995 Y100.716 E16.95554
G1 X55.261 Y100.727 E16.97723
G1 X55.673 Y100.687 E17.01104
G1 X55.998 Y100.587 E17.03883
G1 X56.302 Y100.434 E17.06661
G1 X56.576 Y100.232 E17.09441
G1 X56.812 Y99.986 E17.12219
G1 X57.002 Y99.704 E17.14999
G1 X57.142 Y99.394 E17.17778
G1 X57.224 Y99.080 E17.20426
G1 X57.254 Y98.762 E17.23029
G1 X57.224 Y98.370 E17.26237
G1 X57.142 Y98.056 E17.28886
G1 X57.002 Y97.746 E17.31664
G1 X56.812 Y97.464 E17.34444
G1 X56.576 Y97.218 E17.37223
G1 X56.302 Y97.016 E17.40001
G1 X55.998 Y96.863 E17.42781
G1 X55.673 Y96.763 E17.45559
G1 X55.335 Y96.720 E17.48338
G1 X54.995 Y96.734 E17.51117
G1 X54.662 Y96.806 E17.53896
G1 X54.346 Y96.933 E17.56676
G1 X54.057 Y97.111 E17.59454
G1 X53.801 Y97.336 E17.62233
G1 X53.517 Y97.688 E17.65927
G1 X53.250 Y97.594 E17.68236
G1 X53.250 Y93.225 E18.03901
M106 S255
G1 X53.250 Y92.525 E18.08267 F1322.105
G1 X128.500 Y92.525 E22.77546
G1 X128.500 Y93.225 E22.81912
M106 S255
G1 X128.500 Y105.627 E23.83152 F3600.000
G1 X127.250 Y105.627 E23.93357
G1 X127.250 Y95.475 E24.76230
G1 X59.325 Y95.475 E30.30720
M106 S255
G1 X129.000 Y92.725 F7800.000
G1 X129.000 Y93.225 E30.33838 F925.474
M106 S255
G1 X129.000 Y106.127 E31.39160 F3600.000
G1 X126.750 Y106.127 E31.57527
G1 X126.750 Y95.975 E32.40401
G1 X59.750 Y95.975 E37.87340
G1 X59.750 Y106.127 E38.70213
G1 X52.750 Y106.127 E39.27356
G1 X52.750 Y93.225 E40.32678
M106 S255
G1 X52.750 Y92.025 E40.40162 F925.474
G1 X147.250 Y92.025 E46.29490
G1 X147.250 Y92.725 E46.33855
G1 X129.075 Y92.725 E47.47199
G1 X52.999 Y92.792 F7800.000
G1 X58.330 Y100.261 F7800.000
M106 S255
G1 X58.373 Y100.304 E47.47697 F3600.000
G1 X57.628 Y100.345 E47.53789
G1 X58.373 Y101.090 E47.62391
G1 X58.373 Y101.877 E47.68812
G1 X57.271 Y100.775 E47.81535
G1 X56.838 Y101.129 E47.86097
G1 X58.373 Y102.663 E48.03812
G1 X58.373 Y103.450 E48.10232
G1 X56.327 Y101.404 E48.33849
G1 X55.704 Y101.567 E48.39107
G1 X58.373 Y104.236 E48.69917
G1 X58.100 Y104.750 E48.74664
G1 X54.942 Y101.592 E49.11124
G1 X54.127 Y101.564 E49.17776
G1 X57.313 Y104.750 E49.54557
G1 X56.527 Y104.750 E49.60978
G1 X54.127 Y102.350 E49.88679
G1 X54.127 Y103.137 E49.95100
G1 X55.740 Y104.750 E50.13721
G1 X54.954 Y104.750 E50.20142
G1 X54.127 Y103.923 E50.29684
G1 X54.127 Y104.710 E50.36104
G1 X54.167 Y104.750 E50.36566
M106 S255
G1 X58.154 Y99.858 F7800.000
G1 X58.230 Y99.257 E50.41829 F881.404
G1 X58.255 Y98.704 E50.46631
G1 X58.230 Y98.193 E50.51074
G1 X58.154 Y97.592 E50.56335
G1 F1800.000 E49.56335
G92 E0
G1 X53.335 Y97.889 F7800.000
G1 E1.00000 F1800.000
G1 X53.277 Y98.236 E1.03051 F881.404
G1 X53.248 Y98.736 E1.07400
G1 X53.277 Y99.214 E1.11566
G1 X53.335 Y99.561 E1.14618
G1 X54.127 Y96.026 F7800.000
M106 S255
G1 X54.163 Y96.061 E1.15027 F3600.000
G1 X54.771 Y95.885 E1.20195
G1 X54.127 Y95.242 E1.27625
G1 X54.127 Y94.457 E1.34027
G1 X55.530 Y95.860 E1.50225
G1 X56.676 Y96.222 E1.60036
G1 X54.127 Y93.673 E1.89464
G1 X54.641 Y93.402 E1.94204
G1 X58.373 Y97.134 E2.37287
G1 X58.373 Y96.350 E2.43690
G1 X55.425 Y93.402 E2.77718
G1 X56.210 Y93.402 E2.84121
G1 X58.373 Y95.565 E3.09095
G1 X58.373 Y94.781 E3.15497
G1 X56.994 Y93.402 E3.31417
G1 X57.778 Y93.402 E3.37819
G1 X58.974 Y94.598 E3.51621
G1 X59.758 Y94.598 E3.58024
G1 X58.562 Y93.402 E3.71826
G1 X59.347 Y93.402 E3.78228
G1 X60.542 Y94.598 E3.92030
G1 X61.327 Y94.598 E3.98433
G1 X60.131 Y93.402 E4.12234
G1 X60.915 Y93.402 E4.18637
G1 X62.111 Y94.598 E4.32439
G1 X62.895 Y94.598 E4.38841
G1 X61.700 Y93.402 E4.52643
G1 X62.484 Y93.402 E4.59046
G1 X63.680 Y94.598 E4.72848
G1 X64.464 Y94.598 E4.79250
G1 X63.268 Y93.402 E4.93052
G1 X64.053 Y93.402 E4.99455
G1 X65.248 Y94.598 E5.13256
G1 X66.033 Y94.598 E5.19659
G1 X64.837 Y93.402 E5.33461
G1 X65.621 Y93.402 E5.39863
G1 X66.817 Y94.598 E5.53665
G1 X67.601 Y94.598 E5.60068
G1 X66.406 Y93.402 E5.73870
G1 X67.190 Y93.402 E5.80272
G1 X68.386 Y94.598 E5.94074
G1 X69.170 Y94.598 E6.00477
G1 X67.974 Y93.402 E6.14278
G1 X68.759 Y93.402 E6.20681
G1 X69.954 Y94.598 E6.34483
G1 X70.738 Y94.598 E6.40885
G1 X69.543 Y93.402 E6.54687
G1 X70.327 Y93.402 E6.61090
G1 X71.523 Y94.598 E6.74892
G1 X72.307 Y94.598 E6.81294
G1 X71.112 Y93.402 E6.95096
G1 X71.896 Y93.402 E7.01499
G1 X73.091 Y94.598 E7.15300
G1 X73.876 Y94.598 E7.21703
G1 X72.680 Y93.402 E7.35505
G1 X73.465 Y93.402 E7.41907
G1 X74.660 Y94.598 E7.55709
G1 X75.444 Y94.598 E7.62112
G1 X74.249 Y93.402 E7.75914
G1 X75.033 Y93.402 E7.82316
G1 X76.229 Y94.598 E7.96118
G1 X77.013 Y94.598 E8.02521
G1 X75.818 Y93.402 E8.16322
G1 X76.602 Y93.402 E8.22725
G1 X77.797 Y94.598 E8.36527
G1 X78.582 Y94.598 E8.42929
G1 X77.386 Y93.402 E8.56731
