; generated by Slic3r 1.1.7 on 2015-03-02 at 22:30:24

; perimeters extrusion width = 0.50mm
; infill extrusion width = 0.70mm
; solid infill extrusion width = 0.70mm
; top infill extrusion width = 0.70mm

G21 ; set units to millimeters
M107
M190 S115 ; wait for bed temperature to be reached
M104 S220 ; set temperature
G28 ; home all axes
G1 Z5 F5000 ; lift nozzle

M109 S220 ; wait for temperature to be reached
G90 ; use absolute coordinates
G92 E0
M82 ; use absolute distances for extrusion
G1 F1800.000 E-1.00000
G92 E0
G1 Z0.350 F7800.000
G1 X53.902 Y72.696 F7800.000
G1 E1.00000 F1800.000
G1 X55.814 Y71.419 E1.21982 F1080.000
G1 X58.500 Y70.853 E1.48226
G1 X141.500 Y70.853 E9.41820
G1 X143.765 Y71.250 E9.63802 F1080.000
G1 X146.098 Y72.696 E9.90046
G1 X152.098 Y78.426 E10.69372
G1 X153.461 Y80.277 E10.91354
G1 X154.157 Y83.240 E11.20458
G1 X154.073 Y91.820 E12.02499
G1 X149.695 Y118.651 E14.62431
G1 X147.848 Y124.496 E15.21047
G1 X146.787 Y126.536 E15.43029
G1 X145.095 Y128.093 E15.65011
G1 X142.975 Y128.982 E15.86993
G1 X141.500 Y129.147 E16.01181
G1 X58.500 Y129.147 E23.94775
G1 X56.235 Y128.750 E24.16757
G1 X53.793 Y127.197 E24.44432
G1 X47.793 Y121.197 E25.25563
G1 X46.472 Y119.315 E25.47545
G1 X45.843 Y116.490 E25.75221
G1 X45.843 Y83.240 E28.93137
G1 X46.240 Y80.975 E29.15119
G1 X47.902 Y78.426 E29.44222
G1 X53.848 Y72.747 E30.22832
G1 F1800.000 E29.22832
G92 E0
G1 X141.664 Y87.928 F7800.000
G1 E1.00000 F1800.000
G1 X71.836 Y87.928 E7.67654 F540.000
G1 X71.836 Y89.101 E7.78872
G1 X67.836 Y89.101 E8.17117
G1 X67.836 Y118.309 E10.96381
G1 X71.836 Y118.309 E11.34627
G1 X71.836 Y119.482 E11.45844
G1 X139.836 Y119.482 E17.96017
G1 X139.836 Y120.826 E18.08866
G1 X60.164 Y120.826 E25.70637
G1 X60.164 Y119.595 E25.82406
G1 X60.129 Y118.937 E25.88704
G1 X59.972 Y118.209 E25.95824
G1 X59.704 Y117.514 E26.02943
G1 X59.331 Y116.870 E26.10063
G1 X58.861 Y116.292 E26.17182
G1 X58.307 Y115.795 E26.24301
G1 X57.682 Y115.391 E26.31421
G1 X57.001 Y115.089 E26.38541
G1 X56.281 Y114.898 E26.45660
G1 X55.586 Y114.826 E26.52347
G1 X54.164 Y114.826 E26.65939
G1 X54.164 Y84.904 E29.52031
G1 X55.586 Y84.904 E29.65623
G1 X56.281 Y84.832 E29.72310
G1 X57.001 Y84.641 E29.79430
G1 X57.682 Y84.339 E29.86549
G1 X58.307 Y83.935 E29.93669
G1 X58.861 Y83.438 E30.00788
G1 X59.331 Y82.860 E30.07908
G1 X59.704 Y82.216 E30.15027
G1 X59.972 Y81.521 E30.22146
G1 X60.129 Y80.793 E30.29266
G1 X60.164 Y80.135 E30.35565
G1 X60.164 Y79.174 E30.44752
G1 X139.836 Y79.174 E38.06522
G1 X139.816 Y80.607 E38.20223
G1 X139.902 Y81.310 E38.26994
G1 X140.096 Y81.991 E38.33765
G1 X140.395 Y82.633 E38.40536
G1 X140.681 Y83.058 E38.45432
G1 X140.790 Y83.221 E38.47307
G1 X141.272 Y83.739 E38.54078
G1 X141.830 Y84.176 E38.60848
G1 X142.278 Y84.424 E38.65745
G1 X142.449 Y84.520 E38.67620
G1 X143.114 Y84.762 E38.74391
G1 X143.839 Y84.904 E38.81450
G1 X145.836 Y84.904 E39.00544
G1 X145.836 Y89.101 E39.40674
G1 X141.664 Y89.101 E39.80561
G1 X141.664 Y88.003 E39.91061
G1 X141.007 Y88.585 F7800.000
G1 X72.493 Y88.585 E46.46150 F540.000
G1 X72.493 Y89.758 E46.57368
G1 X68.493 Y89.758 E46.95613
G1 X68.493 Y99.822 E47.91841
G1 X72.493 Y99.822 E48.30086
G1 X72.493 Y101.198 E48.43241
G1 X68.493 Y101.198 E48.81487
G1 X68.493 Y106.212 E49.29429
G1 X72.493 Y106.212 E49.67674
G1 X72.493 Y107.588 E49.80829
G1 X68.493 Y107.588 E50.19075
G1 X68.493 Y117.652 E51.15294
G1 X72.493 Y117.652 E51.53540
G1 X72.493 Y118.825 E51.64757
G1 X140.514 Y118.825 E58.15135
G1 X140.475 Y119.152 E58.18283
G1 X140.493 Y119.660 E58.23150
G1 X140.493 Y121.483 E58.40575
G1 X59.507 Y121.483 E66.14911
G1 X59.507 Y119.613 E66.32792
G1 X59.475 Y119.024 E66.38426
G1 X59.341 Y118.397 E66.44557
G1 X59.110 Y117.799 E66.50687
G1 X58.788 Y117.245 E66.56818
G1 X58.384 Y116.747 E66.62948
G1 X57.907 Y116.319 E66.69079
G1 X57.368 Y115.971 E66.75210
G1 X56.782 Y115.711 E66.81340
G1 X56.162 Y115.546 E66.87471
G1 X55.552 Y115.483 E66.93340
G1 X53.507 Y115.483 E67.12891
G1 X53.507 Y84.247 E70.11548
G1 X55.552 Y84.247 E70.31099
G1 X56.162 Y84.184 E70.36968
G1 X56.782 Y84.019 E70.43099
G1 X57.368 Y83.759 E70.49229
G1 X57.907 Y83.411 E70.55360
G1 X58.384 Y82.983 E70.61490
G1 X58.788 Y82.485 E70.67621
G1 X59.110 Y81.931 E70.73751
G1 X59.341 Y81.333 E70.79882
G1 X59.475 Y80.706 E70.86012
G1 X59.507 Y80.117 E70.91646
G1 X59.507 Y78.517 E71.06946
G1 X140.493 Y78.517 E78.81282
G1 X140.493 Y80.072 E78.96148
G1 X140.475 Y80.579 E79.00999
G1 X140.548 Y81.179 E79.06781
G1 X140.714 Y81.761 E79.12563
G1 X140.969 Y82.309 E79.18345
G1 X141.306 Y82.811 E79.24127
G1 X141.718 Y83.253 E79.29909
G1 X142.194 Y83.626 E79.35691
G1 X142.597 Y83.850 E79.40093
G1 X142.723 Y83.920 E79.41474
G1 X143.291 Y84.128 E79.47256
G1 X143.902 Y84.247 E79.53212
G1 X146.493 Y84.247 E79.77980
G1 X146.493 Y89.758 E80.30675
G1 X141.007 Y89.758 E80.83127
G1 X141.007 Y88.660 E80.93628
G1 F1800.000 E79.93628
G92 E0
G1 X141.007 Y99.822 F7800.000
G1 E1.00000 F1800.000
G1 X142.493 Y99.822 E1.14207 F540.000
G1 X142.493 Y101.198 E1.27362
G1 X141.007 Y101.198 E1.41568
G1 X141.007 Y99.897 E1.54006
G1 F1800.000 E0.54006
G92 E0
G1 X141.007 Y106.212 F7800.000
G1 E1.00000 F1800.000
G1 X142.493 Y106.212 E1.14207 F540.000
G1 X142.493 Y107.588 E1.27362
G1 X141.007 Y107.588 E1.41568
G1 X141.007 Y106.287 E1.54006
G1 X140.350 Y107.072 F7800.000
G1 X73.150 Y107.072 E7.96530 F378.000
G1 X73.150 Y108.245 E8.07747
G1 X69.150 Y108.245 E8.45993
G1 X69.150 Y116.995 E9.29647
G1 X73.150 Y116.995 E9.67893
G1 X73.150 Y118.168 E9.79110
G1 X140.350 Y118.168 E16.21634
G1 X140.350 Y116.995 E16.32852
G1 X142.048 Y116.995 E16.49083
G1 X141.543 Y117.745 E16.57731
G1 X141.331 Y118.199 E16.62523
G1 X141.194 Y118.682 E16.67317
G1 X141.133 Y119.180 E16.72115
G1 X141.150 Y119.649 E16.76602
G1 X141.150 Y122.140 E17.00423
G1 X58.850 Y122.140 E24.87323
G1 X58.850 Y119.631 E25.11317
G1 X58.822 Y119.112 E25.16286
G1 X58.709 Y118.586 E25.21428
G1 X58.515 Y118.084 E25.26570
G1 X58.246 Y117.619 E25.31711
G1 X57.907 Y117.202 E25.36853
G1 X57.506 Y116.842 E25.41995
G1 X57.055 Y116.550 E25.47136
G1 X56.563 Y116.333 E25.52278
G1 X56.043 Y116.194 E25.57420
G1 X55.518 Y116.140 E25.62471
G1 X52.850 Y116.140 E25.87981
G1 X52.850 Y83.590 E28.99203
G1 X55.518 Y83.590 E29.24713
G1 X56.043 Y83.536 E29.29764
G1 X56.563 Y83.397 E29.34906
G1 X57.055 Y83.180 E29.40047
G1 X57.506 Y82.888 E29.45189
G1 X57.907 Y82.528 E29.50331
G1 X58.246 Y82.111 E29.55472
G1 X58.515 Y81.646 E29.60614
G1 X58.709 Y81.144 E29.65756
G1 X58.822 Y80.618 E29.70897
G1 X58.850 Y80.099 E29.75867
G1 X58.850 Y77.860 E29.97279
G1 X141.150 Y77.860 E37.84180
G1 X141.150 Y80.084 E38.05441
G1 X141.133 Y80.551 E38.09911
G1 X141.194 Y81.049 E38.14704
G1 X141.331 Y81.531 E38.19497
G1 X141.543 Y81.985 E38.24290
G1 X141.823 Y82.401 E38.29084
G1 X142.164 Y82.768 E38.33877
G1 X142.559 Y83.077 E38.38670
G1 X142.997 Y83.321 E38.43463
G1 X143.468 Y83.493 E38.48256
G1 X143.966 Y83.590 E38.53110
G1 X147.150 Y83.590 E38.83553
G1 X147.150 Y90.415 E39.48813
G1 X140.350 Y90.415 E40.13830
G1 X140.350 Y89.242 E40.25048
G1 X73.150 Y89.242 E46.67571
G1 X73.150 Y90.415 E46.78789
G1 X69.150 Y90.415 E47.17034
G1 X69.150 Y99.165 E48.00696
G1 X73.150 Y99.165 E48.38942
G1 X73.150 Y100.338 E48.50152
G1 X140.350 Y100.338 E54.92676
G1 X140.350 Y99.165 E55.03886
G1 X143.150 Y99.165 E55.30658
G1 X143.150 Y101.855 E55.56378
G1 X69.150 Y101.855 E62.63919
G1 X69.150 Y105.555 E62.99296
G1 X143.150 Y105.555 E70.06837
G1 X143.150 Y108.245 E70.32557
G1 X140.350 Y108.245 E70.59329
G1 X140.350 Y107.147 E70.69830
G1 X140.350 Y106.572 F7800.000
G1 F1800.000 E69.69830
G92 E0
G1 X144.884 Y88.645 F7800.000
G1 E1.00000 F1800.000
G1 X135.869 Y79.631 E2.21890 F1080.000
G1 X138.674 Y79.631 F7800.000
G1 X139.364 Y80.320 E2.31211 F1080.000
G1 X139.445 Y81.336 E2.40961
G1 X137.739 Y79.631 E2.64027
G1 X136.804 Y79.631 E2.72968
G1 X139.965 Y82.791 E3.15706
G1 X141.923 Y84.749 F7800.000
G1 X145.379 Y88.206 E3.62441 F1080.000
G1 X145.379 Y87.271 E3.71382
G1 X143.390 Y85.281 E3.98279
G1 X144.404 Y85.361 E4.08005
G1 X145.379 Y86.336 E4.21189
G1 X145.379 Y85.401 E4.30130
G1 X145.339 Y85.361 E4.30671
G1 X141.840 Y87.472 F7800.000
G1 X133.999 Y79.631 E5.36697 F1080.000
G1 X134.934 Y79.631 E5.45638
G1 X143.949 Y88.645 E6.67528
G1 X143.013 Y88.645 E6.76469
G1 X142.121 Y87.752 E6.88543
G1 X140.905 Y87.472 E7.00468
G1 X133.064 Y79.631 E8.06494
G1 X132.129 Y79.631 E8.15435
G1 X139.970 Y87.472 E9.21461
G1 X139.035 Y87.472 E9.30402
G1 X131.194 Y79.631 E10.36428
G1 X130.259 Y79.631 E10.45369
G1 X138.100 Y87.472 E11.51395
G1 X137.165 Y87.472 E11.60336
G1 X129.324 Y79.631 E12.66362
G1 X128.389 Y79.631 E12.75302
G1 X136.230 Y87.472 E13.81329
G1 X135.295 Y87.472 E13.90269
G1 X127.454 Y79.631 E14.96296
G1 X126.519 Y79.631 E15.05236
G1 X134.360 Y87.472 E16.11263
G1 X133.425 Y87.472 E16.20203
G1 X125.584 Y79.631 E17.26230
G1 X124.648 Y79.631 E17.35170
G1 X132.490 Y87.472 E18.41196
G1 X131.555 Y87.472 E18.50137
G1 X123.713 Y79.631 E19.56163
G1 X122.778 Y79.631 E19.65104
G1 X130.619 Y87.472 E20.71130
G1 X129.684 Y87.472 E20.80071
G1 X121.843 Y79.631 E21.86097
G1 X120.908 Y79.631 E21.95038
G1 X128.749 Y87.472 E23.01064
G1 X127.814 Y87.472 E23.10005
G1 X119.973 Y79.631 E24.16031
G1 X119.038 Y79.631 E24.24972
G1 X126.879 Y87.472 E25.30998
G1 X125.944 Y87.472 E25.39938
G1 X118.103 Y79.631 E26.45965
G1 X117.168 Y79.631 E26.54905
G1 X125.009 Y87.472 E27.60932
G1 X124.074 Y87.472 E27.69872
G1 X116.233 Y79.631 E28.75899
G1 X115.298 Y79.631 E28.84839
G1 X123.139 Y87.472 E29.90866
G1 X122.204 Y87.472 E29.99806
G1 X114.363 Y79.631 E31.05832
G1 X113.428 Y79.631 E31.14773
G1 X121.269 Y87.472 E32.20799
G1 X120.334 Y87.472 E32.29740
G1 X112.493 Y79.631 E33.35766
G1 X111.558 Y79.631 E33.44707
G1 X119.399 Y87.472 E34.50733
G1 X118.464 Y87.472 E34.59674
G1 X110.623 Y79.631 E35.65700
G1 X109.687 Y79.631 E35.74640
G1 X117.529 Y87.472 E36.80667
G1 X116.594 Y87.472 E36.89607
G1 X108.752 Y79.631 E37.95634
G1 X107.817 Y79.631 E38.04574
G1 X115.659 Y87.472 E39.10601
G1 X114.723 Y87.472 E39.19541
G1 X106.882 Y79.631 E40.25568
G1 X105.947 Y79.631 E40.34508
G1 X113.788 Y87.472 E41.40534
G1 X112.853 Y87.472 E41.49475
G1 X105.012 Y79.631 E42.55501
G1 X104.077 Y79.631 E42.64442
G1 X111.918 Y87.472 E43.70468
G1 X110.983 Y87.472 E43.79409
G1 X103.142 Y79.631 E44.85435
G1 X102.207 Y79.631 E44.94376
G1 X110.048 Y87.472 E46.00402
G1 X109.113 Y87.472 E46.09343
G1 X101.272 Y79.631 E47.15369
G1 X100.337 Y79.631 E47.24309
G1 X108.178 Y87.472 E48.30336
G1 X107.243 Y87.472 E48.39276
G1 X99.402 Y79.631 E49.45303
G1 X98.467 Y79.631 E49.54243
G1 X106.308 Y87.472 E50.60270
G1 X105.373 Y87.472 E50.69210
G1 X97.532 Y79.631 E51.75236
G1 X96.597 Y79.631 E51.84177
G1 X104.438 Y87.472 E52.90203
G1 X103.503 Y87.472 E52.99144
G1 X95.662 Y79.631 E54.05170
G1 X94.726 Y79.631 E54.14111
G1 X102.568 Y87.472 E55.20137
G1 X101.633 Y87.472 E55.29078
G1 X93.791 Y79.631 E56.35104
G1 X92.856 Y79.631 E56.44045
G1 X100.698 Y87.472 E57.50071
G1 X99.762 Y87.472 E57.59011
G1 X91.921 Y79.631 E58.65038
G1 X90.986 Y79.631 E58.73978
G1 X98.827 Y87.472 E59.80005
G1 X97.892 Y87.472 E59.88945
G1 X90.051 Y79.631 E60.94972
G1 X89.116 Y79.631 E61.03912
G1 X96.957 Y87.472 E62.09938
G1 X96.022 Y87.472 E62.18879
G1 X88.181 Y79.631 E63.24905
G1 X87.246 Y79.631 E63.33846
G1 X95.087 Y87.472 E64.39872
G1 X94.152 Y87.472 E64.48813
G1 X86.311 Y79.631 E65.54839
G1 X85.376 Y79.631 E65.63780
G1 X93.217 Y87.472 E66.69806
G1 X92.282 Y87.472 E66.78746
G1 X84.441 Y79.631 E67.84773
G1 X83.506 Y79.631 E67.93713
G1 X91.347 Y87.472 E68.99740
G1 X90.412 Y87.472 E69.08680
G1 X82.571 Y79.631 E70.14707
G1 X81.636 Y79.631 E70.23647
G1 X89.477 Y87.472 E71.29673
G1 X88.542 Y87.472 E71.38614
G1 X80.701 Y79.631 E72.44640
G1 X79.766 Y79.631 E72.53581
G1 X87.607 Y87.472 E73.59607
G1 X86.672 Y87.472 E73.68548
G1 X78.830 Y79.631 E74.74574
G1 X77.895 Y79.631 E74.83515
G1 X85.737 Y87.472 E75.89541
G1 X84.801 Y87.472 E75.98481
G1 X76.960 Y79.631 E77.04508
G1 X76.025 Y79.631 E77.13448
G1 X83.866 Y87.472 E78.19475
G1 X82.931 Y87.472 E78.28415
G1 X75.090 Y79.631 E79.34442
G1 X74.155 Y79.631 E79.43382
G1 X81.996 Y87.472 E80.49408
G1 X81.061 Y87.472 E80.58349
G1 X73.220 Y79.631 E81.64375
G1 X72.285 Y79.631 E81.73316
G1 X80.126 Y87.472 E82.79342
G1 X79.191 Y87.472 E82.88283
G1 X71.350 Y79.631 E83.94309
G1 X70.415 Y79.631 E84.03250
G1 X78.256 Y87.472 E85.09276
G1 X77.321 Y87.472 E85.18216
G1 X69.480 Y79.631 E86.24243
G1 X68.545 Y79.631 E86.33183
G1 X76.386 Y87.472 E87.39210
G1 X75.451 Y87.472 E87.48150
G1 X67.610 Y79.631 E88.54177
G1 X66.675 Y79.631 E88.63117
G1 X74.516 Y87.472 E89.69143
G1 X73.581 Y87.472 E89.78084
G1 X65.740 Y79.631 E90.84110
G1 X64.805 Y79.631 E90.93051
G1 X72.646 Y87.472 E91.99077
G1 X71.711 Y87.472 E92.08018
G1 X63.869 Y79.631 E93.14044
G1 X62.934 Y79.631 E93.22984
G1 X71.379 Y88.076 E94.37177
G1 X71.014 Y88.645 E94.43647
G1 X61.999 Y79.631 E95.65537
G1 X61.064 Y79.631 E95.74478
G1 X70.079 Y88.645 E96.96368
G1 X69.144 Y88.645 E97.05309
G1 X60.621 Y80.122 E98.20556
G1 X60.553 Y80.989 E98.28876
G1 X68.208 Y88.645 E99.32391
G1 X67.379 Y88.751 E99.40383
G1 X60.375 Y81.746 E100.35101
G1 X60.113 Y82.420 E100.42010
G1 X67.379 Y89.686 E101.40261
G1 X67.379 Y90.621 E101.49202
G1 X59.770 Y83.012 E102.52093
G1 X59.365 Y83.541 E102.58471
G1 X67.379 Y91.556 E103.66843
G1 X67.379 Y92.491 E103.75784
G1 X58.902 Y84.014 E104.90412
G1 X58.383 Y84.429 E104.96773
G1 X67.379 Y93.426 E106.18426
G1 X67.379 Y94.361 E106.27367
G1 X57.803 Y84.785 E107.56860
G1 X57.155 Y85.072 E107.63636
G1 X67.379 Y95.296 E109.01890
G1 X67.379 Y96.231 E109.10831
G1 X56.417 Y85.269 E110.59068
G1 X55.574 Y85.361 E110.67177
G1 X67.379 Y97.166 E112.26815
G1 X67.379 Y98.102 E112.35756
G1 X54.649 Y85.372 E114.07888
G1 X54.621 Y86.278 E114.16556
G1 X67.379 Y99.037 E115.89081
G1 X67.379 Y99.972 E115.98021
G1 X54.621 Y87.213 E117.70545
G1 X54.621 Y88.148 E117.79486
G1 X67.379 Y100.907 E119.52010
G1 X67.379 Y101.842 E119.60951
G1 X54.621 Y89.083 E121.33475
G1 X54.621 Y90.018 E121.42416
G1 X67.379 Y102.777 E123.14940
G1 X67.379 Y103.712 E123.23880
G1 X54.621 Y90.953 E124.96405
G1 X54.621 Y91.888 E125.05345
G1 X67.379 Y104.647 E126.77869
G1 X67.379 Y105.582 E126.86810
G1 X54.621 Y92.823 E128.59334
G1 X54.621 Y93.758 E128.68275
G1 X67.379 Y106.517 E130.40799
G1 X67.379 Y107.452 E130.49739
G1 X54.621 Y94.693 E132.22264
G1 X54.621 Y95.628 E132.31204
G1 X67.379 Y108.387 E134.03729
G1 X67.379 Y109.322 E134.12669
G1 X54.621 Y96.563 E135.85193
G1 X54.621 Y97.498 E135.94134
G1 X67.379 Y110.257 E137.66658
G1 X67.379 Y111.192 E137.75599
G1 X54.621 Y98.433 E139.48123
G1 X54.621 Y99.368 E139.57063
G1 X67.379 Y112.127 E141.29588
G1 X67.379 Y113.063 E141.38528
G1 X54.621 Y100.304 E143.11053
G1 X54.621 Y101.239 E143.19993
G1 X67.379 Y113.998 E144.92517
G1 X67.379 Y114.933 E145.01458
G1 X54.621 Y102.174 E146.73982
G1 X54.621 Y103.109 E146.82923
G1 X67.379 Y115.868 E148.55447
G1 X67.379 Y116.803 E148.64387
G1 X54.621 Y104.044 E150.36912
G1 X54.621 Y104.979 E150.45852
G1 X67.379 Y117.738 E152.18376
G1 X67.379 Y118.673 E152.27317
G1 X54.621 Y105.914 E153.99841
G1 X54.621 Y106.849 E154.08782
G1 X68.141 Y120.369 E155.91603
G1 X67.206 Y120.369 E156.00544
G1 X54.621 Y107.784 E157.70722
G1 X54.621 Y108.719 E157.79662
G1 X66.271 Y120.369 E159.37196
G1 X65.336 Y120.369 E159.46137
G1 X54.621 Y109.654 E160.91027
G1 X54.621 Y110.589 E160.99968
G1 X64.401 Y120.369 E162.32214
G1 X63.466 Y120.369 E162.41155
G1 X59.709 Y116.613 E162.91950
G1 X58.423 Y115.327 F7800.000
G1 X54.621 Y111.524 E163.43365 F1080.000
G1 X54.621 Y112.459 E163.52306
G1 X56.697 Y114.536 E163.80387
G1 X55.596 Y114.369 E163.91041
G1 X54.621 Y113.394 E164.04225
G1 X54.621 Y114.329 E164.13166
G1 X54.661 Y114.369 E164.13707
G1 X60.458 Y118.297 F7800.000
G1 X62.531 Y120.369 E164.41734 F1080.000
G1 X61.596 Y120.369 E164.50674
G1 X60.610 Y119.384 E164.64004
G1 X60.621 Y120.329 E164.73049
G1 X60.661 Y120.369 E164.73589
G1 X67.472 Y118.765 F7800.000
G1 X69.076 Y120.369 E164.95283 F1080.000
G1 X70.011 Y120.369 E165.04224
G1 X68.407 Y118.765 E165.25917
G1 X69.342 Y118.765 E165.34858
G1 X70.946 Y120.369 E165.56552
G1 X71.051 Y119.539 E165.64553
